;FLAVOR:Marlin
;TIME:18018
;Filament used: 10.2922m
;Layer height: 0.2
;MINX:56.5
;MINY:54
;MINZ:0.2
;MAXX:178.5
;MAXY:181
;MAXZ:5
;TARGET_MACHINE.NAME:Creality Ender-3
;Generated with Cura_SteamEngine 5.7.0
M140 S80
M105
M190 S80
M104 S200
M105
M109 S200
M82 ;absolute extrusion mode
; Ender 3 Custom Start G-code
G92 E0 ; Reset Extruder
G28 ; Home all axes
G1 Z2.0 F3000 ; Move Z Axis up little to prevent scratching of Heat Bed
G1 X0.1 Y20 Z0.3 F5000.0 ; Move to start position
G1 X0.1 Y200.0 Z0.3 F1500.0 E15 ; Draw the first line
G1 X0.4 Y200.0 Z0.3 F5000.0 ; Move to side a little
G1 X0.4 Y20 Z0.3 F1500.0 E30 ; Draw the second line
G92 E0 ; Reset Extruder
G1 Z2.0 F3000 ; Move Z Axis up little to prevent scratching of Heat Bed
G1 X5 Y20 Z0.3 F5000.0 ; Move over to prevent blob squish
G92 E0
G92 E0
G1 F2700 E-5
;LAYER_COUNT:25
;LAYER:0
M107
G0 F6000 X62.383 Y60.435 Z0.2
;TYPE:SKIRT
G1 F2700 E0
G1 F300 X63.037 Y59.786 E0.03064
G1 X63.386 Y59.461 E0.04651
G1 X63.799 Y59.096 E0.06484
G1 X64.229 Y58.736 E0.08349
G1 X64.636 Y58.411 E0.10081
G1 X65.442 Y57.818 E0.1341
G1 X66.288 Y57.252 E0.16795
G1 X66.651 Y57.027 E0.18215
G1 X67.155 Y56.735 E0.20153
G1 X68.116 Y56.223 E0.23774
G1 X68.552 Y56.012 E0.25385
G1 X69.508 Y55.59 E0.28861
G1 X70.007 Y55.393 E0.30645
G1 X70.499 Y55.212 E0.32389
G1 X71.478 Y54.892 E0.35815
G1 X72.422 Y54.633 E0.39071
G1 X72.967 Y54.506 E0.40932
G1 X73.949 Y54.312 E0.44261
G1 X75 Y54.157 E0.47795
G1 X75.488 Y54.104 E0.49427
G1 X76.042 Y54.059 E0.51276
G1 X77.065 Y54.012 E0.54682
G1 X78.067 Y54 E0.58015
G1 X156.896 Y54 E3.20201
G1 X158.177 Y54.021 E3.24462
G1 X158.884 Y54.053 E3.26816
G1 X159.765 Y54.13 E3.29758
G1 X160.525 Y54.229 E3.32307
G1 X161.126 Y54.324 E3.34331
G1 X161.637 Y54.42 E3.3606
G1 X162.191 Y54.539 E3.37945
G1 X163.169 Y54.789 E3.41302
G1 X163.592 Y54.913 E3.42768
G1 X164.14 Y55.091 E3.44684
G1 X164.797 Y55.323 E3.47002
G1 X165.552 Y55.614 E3.49693
G1 X166.052 Y55.829 E3.51503
G1 X166.531 Y56.05 E3.53258
G1 X167.428 Y56.506 E3.56605
G1 X168.131 Y56.903 E3.5929
G1 X168.927 Y57.395 E3.62402
G1 X169.628 Y57.876 E3.6523
G1 X170.512 Y58.536 E3.68899
G1 X171.208 Y59.104 E3.71887
G1 X171.725 Y59.563 E3.74187
G1 X172.232 Y60.042 E3.76507
G1 X173.013 Y60.859 E3.80266
G1 X173.435 Y61.335 E3.82381
G1 X174.087 Y62.135 E3.85814
G1 X174.678 Y62.935 E3.89122
G1 X174.966 Y63.354 E3.90813
G1 X175.276 Y63.834 E3.92714
G1 X175.803 Y64.722 E3.96148
G1 X176.262 Y65.586 E3.99402
G1 X176.474 Y66.02 E4.01009
G1 X176.708 Y66.535 E4.0289
G1 X177.107 Y67.507 E4.06385
G1 X177.288 Y67.999 E4.08128
G1 X177.608 Y68.978 E4.11554
G1 X177.87 Y69.936 E4.14857
G1 X177.994 Y70.458 E4.16642
G1 X178.096 Y70.953 E4.18323
G1 X178.224 Y71.697 E4.20834
G1 X178.36 Y72.698 E4.24194
G1 X178.44 Y73.524 E4.26954
G1 X178.488 Y74.565 E4.3042
G1 X178.5 Y75.577 E4.33786
G1 X178.499 Y159.538 E7.13042
G1 X178.484 Y160.565 E7.16458
G1 X178.463 Y161.088 E7.18199
G1 X178.427 Y161.648 E7.20065
G1 X178.326 Y162.632 E7.23355
G1 X178.179 Y163.604 E7.26625
G1 X178.082 Y164.124 E7.28384
G1 X177.963 Y164.681 E7.30278
G1 X177.719 Y165.641 E7.33573
G1 X177.418 Y166.623 E7.36989
G1 X177.241 Y167.134 E7.38788
G1 X176.881 Y168.061 E7.42095
G1 X176.679 Y168.532 E7.438
G1 X176.454 Y169.02 E7.45587
G1 X176.003 Y169.913 E7.48915
G1 X175.744 Y170.38 E7.50691
G1 X175.222 Y171.25 E7.54065
G1 X174.955 Y171.661 E7.55695
G1 X174.636 Y172.124 E7.57565
G1 X174.03 Y172.939 E7.60943
G1 X173.721 Y173.325 E7.62588
G1 X173.367 Y173.744 E7.64412
G1 X172.994 Y174.162 E7.66276
G1 X172.617 Y174.565 E7.68111
G1 X171.942 Y175.234 E7.71272
G1 X171.595 Y175.555 E7.72844
G1 X171.177 Y175.922 E7.74694
G1 X170.738 Y176.289 E7.76597
G1 X169.981 Y176.877 E7.79786
G1 X169.555 Y177.185 E7.81534
G1 X169.134 Y177.473 E7.8323
G1 X168.675 Y177.769 E7.85047
G1 X167.778 Y178.303 E7.88519
G1 X166.895 Y178.772 E7.91845
G1 X166.46 Y178.983 E7.93453
G1 X165.983 Y179.2 E7.95196
G1 X165.492 Y179.41 E7.96972
G1 X164.993 Y179.607 E7.98756
G1 X164.501 Y179.788 E8.005
G1 X163.522 Y180.108 E8.03925
G1 X162.578 Y180.367 E8.07181
G1 X162.033 Y180.494 E8.09042
G1 X161.045 Y180.689 E8.12392
G1 X160.525 Y180.771 E8.14143
G1 X159.508 Y180.895 E8.1755
G1 X158.941 Y180.942 E8.19443
G1 X157.935 Y180.988 E8.22792
G1 X156.923 Y181 E8.26158
G1 X77.954 Y180.999 E10.8881
G1 X77.139 Y180.989 E10.91521
G1 X76.262 Y180.956 E10.9444
G1 X75.582 Y180.905 E10.96708
G1 X74.873 Y180.826 E10.99081
G1 X73.89 Y180.678 E11.02387
G1 X73.382 Y180.583 E11.04106
G1 X72.819 Y180.463 E11.06021
G1 X71.859 Y180.219 E11.09315
G1 X70.877 Y179.918 E11.12731
G1 X70.366 Y179.741 E11.1453
G1 X69.439 Y179.381 E11.17838
G1 X68.968 Y179.179 E11.19542
G1 X68.483 Y178.956 E11.21318
G1 X67.563 Y178.489 E11.24749
G1 X67.073 Y178.216 E11.26615
G1 X66.456 Y177.85 E11.29001
G1 X65.744 Y177.389 E11.31822
G1 X65.07 Y176.912 E11.34568
G1 X64.546 Y176.518 E11.36749
G1 X64.163 Y176.21 E11.38384
G1 X63.343 Y175.499 E11.41993
G1 X62.94 Y175.123 E11.43827
G1 X62.6 Y174.786 E11.45419
G1 X61.949 Y174.101 E11.48562
G1 X61.588 Y173.692 E11.50376
G1 X61.24 Y173.275 E11.52183
G1 X60.902 Y172.85 E11.53989
G1 X60.316 Y172.056 E11.57271
G1 X60.031 Y171.64 E11.58948
G1 X59.725 Y171.167 E11.60822
G1 X59.197 Y170.278 E11.64261
G1 X58.728 Y169.395 E11.67586
G1 X58.513 Y168.95 E11.6923
G1 X58.092 Y167.992 E11.72711
G1 X57.89 Y167.486 E11.74523
G1 X57.71 Y166.996 E11.76259
G1 X57.392 Y166.022 E11.79667
G1 X57.133 Y165.078 E11.82923
G1 X57.006 Y164.533 E11.84784
G1 X56.812 Y163.551 E11.88113
G1 X56.657 Y162.5 E11.91647
G1 X56.604 Y162.013 E11.93276
G1 X56.56 Y161.466 E11.95101
G1 X56.526 Y160.884 E11.9704
G1 X56.511 Y160.403 E11.98641
G1 X56.5 Y159.403 E12.01967
G1 X56.501 Y75.444 E14.81216
G1 X56.522 Y74.279 E14.85091
G1 X56.573 Y73.36 E14.88152
G1 X56.672 Y72.383 E14.91419
G1 X56.82 Y71.405 E14.94708
G1 X56.916 Y70.89 E14.96451
G1 X57.036 Y70.324 E14.98375
G1 X57.288 Y69.336 E15.01767
G1 X57.563 Y68.434 E15.04903
G1 X57.886 Y67.529 E15.08099
G1 X58.103 Y66.982 E15.10056
G1 X58.319 Y66.471 E15.11901
G1 X58.525 Y66.02 E15.13551
G1 X58.781 Y65.502 E15.15472
G1 X59.268 Y64.599 E15.18885
G1 X59.528 Y64.155 E15.20596
G1 X59.923 Y63.534 E15.23044
G1 X60.523 Y62.664 E15.26559
G1 X60.992 Y62.037 E15.29163
G1 X61.634 Y61.259 E15.32518
G1 X62.001 Y60.844 E15.34361
G1 X62.383 Y60.435 E15.36222
G0 F6000 X62.665 Y60.719
G1 F300 X63.309 Y60.079 E15.39242
G1 X63.651 Y59.761 E15.40795
G1 X64.056 Y59.403 E15.42593
G1 X64.479 Y59.049 E15.44428
G1 X64.886 Y58.724 E15.4616
G1 X65.665 Y58.15 E15.49378
G1 X66.498 Y57.592 E15.52713
G1 X66.852 Y57.373 E15.54097
G1 X67.343 Y57.088 E15.55986
G1 X68.29 Y56.583 E15.59555
G1 X68.713 Y56.378 E15.61119
G1 X69.656 Y55.962 E15.64547
G1 X70.145 Y55.768 E15.66297
G1 X70.623 Y55.592 E15.67991
G1 X71.584 Y55.278 E15.71353
G1 X72.528 Y55.019 E15.74609
G1 X73.044 Y54.898 E15.76372
G1 X74.007 Y54.708 E15.79637
G1 X75.043 Y54.555 E15.8312
G1 X75.52 Y54.503 E15.84716
G1 X76.061 Y54.459 E15.86521
G1 X77.07 Y54.412 E15.8988
G1 X78.072 Y54.4 E15.93213
G1 X156.889 Y54.4 E18.5536
G1 X158.159 Y54.421 E18.59584
G1 X158.849 Y54.452 E18.61882
G1 X159.714 Y54.527 E18.64769
G1 X160.463 Y54.624 E18.67281
G1 X161.052 Y54.717 E18.69265
G1 X161.553 Y54.811 E18.7096
G1 X162.092 Y54.927 E18.72794
G1 X163.057 Y55.173 E18.76106
G1 X163.468 Y55.293 E18.7753
G1 X164.007 Y55.468 E18.79415
G1 X164.653 Y55.696 E18.81694
G1 X165.394 Y55.982 E18.84335
G1 X165.884 Y56.192 E18.86108
G1 X166.35 Y56.407 E18.87815
G1 X167.247 Y56.863 E18.91162
G1 X167.921 Y57.243 E18.93736
G1 X168.701 Y57.725 E18.96785
G1 X169.389 Y58.196 E18.99559
G1 X170.259 Y58.846 E19.03171
G1 X170.942 Y59.403 E19.06102
G1 X171.45 Y59.854 E19.08361
G1 X171.957 Y60.333 E19.10681
G1 X172.714 Y61.125 E19.14325
G1 X173.125 Y61.588 E19.16384
G1 X173.765 Y62.373 E19.19753
G1 X174.348 Y63.162 E19.23016
G1 X174.63 Y63.572 E19.24671
G1 X174.932 Y64.038 E19.26518
G1 X175.45 Y64.91 E19.29891
G1 X175.903 Y65.762 E19.33101
G1 X176.11 Y66.185 E19.34667
G1 X176.338 Y66.687 E19.36501
G1 X176.732 Y67.645 E19.39946
G1 X176.908 Y68.123 E19.4164
G1 X177.222 Y69.084 E19.45003
G1 X177.481 Y70.028 E19.48259
G1 X177.602 Y70.539 E19.50005
G1 X177.702 Y71.021 E19.51643
G1 X177.828 Y71.751 E19.54106
G1 X177.962 Y72.737 E19.57416
G1 X178.04 Y73.543 E19.60109
G1 X178.088 Y74.57 E19.63529
G1 X178.1 Y75.577 E19.66878
G1 X178.099 Y159.532 E22.46114
G1 X178.084 Y160.549 E22.49497
G1 X178.064 Y161.062 E22.51204
G1 X178.029 Y161.607 E22.53021
G1 X177.93 Y162.573 E22.5625
G1 X177.786 Y163.531 E22.59473
G1 X177.691 Y164.04 E22.61195
G1 X177.575 Y164.582 E22.63038
G1 X177.331 Y165.542 E22.66333
G1 X177.04 Y166.492 E22.69637
G1 X176.868 Y166.989 E22.71387
G1 X176.513 Y167.904 E22.74651
G1 X176.316 Y168.365 E22.76318
G1 X176.097 Y168.84 E22.78058
G1 X175.653 Y169.719 E22.81333
G1 X175.401 Y170.174 E22.83063
G1 X174.887 Y171.032 E22.8639
G1 X174.626 Y171.434 E22.87984
G1 X174.315 Y171.885 E22.89806
G1 X173.717 Y172.689 E22.93139
G1 X173.415 Y173.067 E22.94748
G1 X173.068 Y173.478 E22.96537
G1 X172.702 Y173.889 E22.98368
G1 X172.336 Y174.281 E23.00151
G1 X171.67 Y174.94 E23.03268
G1 X171.323 Y175.261 E23.0484
G1 X170.921 Y175.615 E23.06621
G1 X170.492 Y175.973 E23.0848
G1 X169.746 Y176.553 E23.11623
G1 X169.329 Y176.855 E23.13335
G1 X168.917 Y177.137 E23.14996
G1 X168.47 Y177.425 E23.16764
G1 X167.59 Y177.95 E23.20173
G1 X166.72 Y178.412 E23.23449
G1 X166.294 Y178.619 E23.25024
G1 X165.826 Y178.832 E23.26734
G1 X165.344 Y179.038 E23.28478
G1 X164.855 Y179.232 E23.30228
G1 X164.377 Y179.408 E23.31922
G1 X163.416 Y179.722 E23.35284
G1 X162.472 Y179.981 E23.3854
G1 X161.956 Y180.102 E23.40303
G1 X160.983 Y180.294 E23.43601
G1 X160.477 Y180.374 E23.45305
G1 X159.475 Y180.496 E23.48663
G1 X158.922 Y180.542 E23.50508
G1 X157.93 Y180.588 E23.53811
G1 X156.923 Y180.6 E23.57161
G1 X77.959 Y180.599 E26.19796
G1 X77.154 Y180.589 E26.22474
G1 X76.291 Y180.557 E26.25346
G1 X75.627 Y180.508 E26.27561
G1 X74.933 Y180.43 E26.29883
G1 X73.95 Y180.282 E26.3319
G1 X73.466 Y180.192 E26.34827
G1 X72.918 Y180.075 E26.36691
G1 X71.958 Y179.831 E26.39985
G1 X71.008 Y179.54 E26.4329
G1 X70.511 Y179.368 E26.45039
G1 X69.596 Y179.013 E26.48303
G1 X69.135 Y178.816 E26.49971
G1 X68.664 Y178.599 E26.51696
G1 X67.758 Y178.14 E26.55074
G1 X67.277 Y177.872 E26.56905
G1 X66.673 Y177.514 E26.5924
G1 X65.975 Y177.062 E26.62006
G1 X65.31 Y176.592 E26.64715
G1 X64.797 Y176.206 E26.6685
G1 X64.414 Y175.898 E26.68485
G1 X64.023 Y175.567 E26.70188
G1 X63.616 Y175.206 E26.71998
G1 X63.221 Y174.838 E26.73793
G1 X62.89 Y174.511 E26.75341
G1 X62.249 Y173.836 E26.78437
G1 X61.895 Y173.435 E26.80216
G1 X61.553 Y173.026 E26.81989
G1 X61.224 Y172.613 E26.83746
G1 X60.646 Y171.829 E26.86985
G1 X60.367 Y171.423 E26.88624
G1 X60.069 Y170.963 E26.90447
G1 X59.55 Y170.09 E26.93825
G1 X59.088 Y169.22 E26.97101
G1 X58.879 Y168.789 E26.98694
G1 X58.463 Y167.844 E27.02128
G1 X58.265 Y167.348 E27.03905
G1 X58.09 Y166.872 E27.05591
G1 X57.778 Y165.916 E27.08936
G1 X57.519 Y164.972 E27.12192
G1 X57.398 Y164.456 E27.13955
G1 X57.208 Y163.493 E27.17219
G1 X57.055 Y162.457 E27.20703
G1 X57.003 Y161.98 E27.22298
G1 X56.959 Y161.443 E27.2409
G1 X56.926 Y160.871 E27.25996
G1 X56.911 Y160.399 E27.27567
G1 X56.9 Y159.403 E27.3088
G1 X56.901 Y75.451 E30.10105
G1 X56.921 Y74.301 E30.13931
G1 X56.971 Y73.4 E30.16932
G1 X57.068 Y72.442 E30.20135
G1 X57.213 Y71.478 E30.23377
G1 X57.307 Y70.973 E30.25085
G1 X57.424 Y70.423 E30.26956
G1 X57.671 Y69.452 E30.30288
G1 X57.94 Y68.568 E30.33361
G1 X58.258 Y67.676 E30.36511
G1 X58.471 Y67.138 E30.38436
G1 X58.683 Y66.637 E30.40245
G1 X58.884 Y66.197 E30.41854
G1 X59.133 Y65.692 E30.43727
G1 X59.613 Y64.801 E30.47093
G1 X59.866 Y64.37 E30.48755
G1 X60.261 Y63.749 E30.51203
G1 X60.844 Y62.903 E30.5462
G1 X61.301 Y62.291 E30.57161
G1 X61.933 Y61.524 E30.60466
G1 X62.294 Y61.117 E30.62276
G1 X62.665 Y60.719 E30.64085
G0 F6000 X62.947 Y61.003
G1 F300 X63.582 Y60.372 E30.67063
G1 X63.916 Y60.061 E30.68581
G1 X64.313 Y59.71 E30.70343
G1 X64.728 Y59.362 E30.72144
G1 X65.124 Y59.046 E30.7383
G1 X65.888 Y58.482 E30.76988
G1 X66.709 Y57.932 E30.80275
G1 X67.053 Y57.719 E30.8162
G1 X67.531 Y57.441 E30.8346
G1 X68.465 Y56.943 E30.8698
G1 X68.874 Y56.744 E30.88493
G1 X69.804 Y56.334 E30.91873
G1 X70.283 Y56.143 E30.93589
G1 X70.747 Y55.972 E30.95233
G1 X71.69 Y55.664 E30.98533
G1 X72.62 Y55.408 E31.01741
G1 X73.121 Y55.29 E31.03453
G1 X74.07 Y55.103 E31.0667
G1 X74.583 Y55.021 E31.08398
G1 X75.086 Y54.953 E31.10086
G1 X75.553 Y54.902 E31.11649
G1 X76.08 Y54.859 E31.13407
G1 X77.075 Y54.812 E31.1672
G1 X78.077 Y54.8 E31.20053
G1 X156.882 Y54.8 E33.8216
G1 X158.141 Y54.821 E33.86348
G1 X158.815 Y54.851 E33.88592
G1 X159.663 Y54.924 E33.91423
G1 X160.401 Y55.019 E33.93897
G1 X160.978 Y55.11 E33.9584
G1 X161.469 Y55.202 E33.97502
G1 X161.993 Y55.315 E33.99285
G1 X162.945 Y55.557 E34.02552
G1 X163.345 Y55.674 E34.03938
G1 X163.874 Y55.845 E34.05787
G1 X164.509 Y56.069 E34.08027
G1 X165.236 Y56.35 E34.10619
G1 X165.726 Y56.56 E34.12392
G1 X166.173 Y56.766 E34.14029
G1 X166.641 Y56.997 E34.15765
G1 X167.051 Y57.212 E34.17305
G1 X167.711 Y57.583 E34.19823
G1 X168.475 Y58.055 E34.2281
G1 X169.15 Y58.517 E34.2553
G1 X170.006 Y59.156 E34.29083
G1 X170.676 Y59.702 E34.31958
G1 X171.175 Y60.145 E34.34177
G1 X171.682 Y60.624 E34.36497
G1 X172.415 Y61.391 E34.40026
G1 X172.815 Y61.841 E34.42028
G1 X173.443 Y62.611 E34.45333
G1 X174.018 Y63.388 E34.48548
G1 X174.294 Y63.79 E34.5017
G1 X174.588 Y64.243 E34.51966
G1 X175.097 Y65.098 E34.55276
G1 X175.544 Y65.938 E34.5844
G1 X175.746 Y66.351 E34.5997
G1 X175.968 Y66.839 E34.61753
G1 X176.357 Y67.783 E34.65149
G1 X176.528 Y68.247 E34.66793
G1 X176.836 Y69.19 E34.70093
G1 X177.092 Y70.12 E34.73301
G1 X177.21 Y70.621 E34.75013
G1 X177.308 Y71.089 E34.76603
G1 X177.432 Y71.805 E34.7902
G1 X177.564 Y72.775 E34.82276
G1 X177.64 Y73.562 E34.84906
G1 X177.688 Y74.575 E34.88279
G1 X177.7 Y75.577 E34.91612
G1 X177.699 Y159.526 E37.70827
G1 X177.684 Y160.534 E37.7418
G1 X177.665 Y161.036 E37.75851
G1 X177.631 Y161.566 E37.77618
G1 X177.534 Y162.514 E37.80787
G1 X177.393 Y163.458 E37.83962
G1 X177.3 Y163.956 E37.85647
G1 X177.187 Y164.483 E37.87439
G1 X176.943 Y165.443 E37.90734
G1 X176.662 Y166.361 E37.93927
G1 X176.495 Y166.844 E37.95627
G1 X176.145 Y167.747 E37.98848
G1 X175.952 Y168.198 E38.0048
G1 X175.74 Y168.66 E38.0217
G1 X175.303 Y169.525 E38.05394
G1 X175.058 Y169.968 E38.07077
G1 X174.551 Y170.814 E38.10358
G1 X174.296 Y171.207 E38.11916
G1 X173.994 Y171.646 E38.13688
G1 X173.405 Y172.439 E38.16974
G1 X173.109 Y172.809 E38.1855
G1 X172.769 Y173.212 E38.20303
G1 X172.41 Y173.616 E38.22101
G1 X172.054 Y173.997 E38.23835
G1 X171.398 Y174.647 E38.26907
G1 X171.059 Y174.961 E38.28444
G1 X170.665 Y175.308 E38.3019
G1 X170.247 Y175.657 E38.32001
G1 X169.511 Y176.229 E38.35101
G1 X169.103 Y176.525 E38.36778
G1 X168.7 Y176.801 E38.38402
G1 X168.265 Y177.082 E38.40125
G1 X167.402 Y177.597 E38.43467
G1 X166.545 Y178.052 E38.46695
G1 X166.128 Y178.255 E38.48237
G1 X165.669 Y178.464 E38.49915
G1 X165.196 Y178.666 E38.51625
G1 X164.717 Y178.857 E38.5334
G1 X164.253 Y179.028 E38.54985
G1 X163.31 Y179.336 E38.58285
G1 X162.38 Y179.592 E38.61493
G1 X161.879 Y179.71 E38.63205
G1 X160.92 Y179.899 E38.66456
G1 X160.429 Y179.977 E38.68109
G1 X159.442 Y180.097 E38.71416
G1 X158.903 Y180.142 E38.73215
G1 X157.925 Y180.188 E38.76472
G1 X156.923 Y180.2 E38.79805
G1 X77.964 Y180.199 E41.42423
G1 X77.169 Y180.189 E41.45068
G1 X76.32 Y180.158 E41.47893
G1 X75.672 Y180.111 E41.50054
G1 X74.992 Y180.034 E41.5233
G1 X74.023 Y179.889 E41.55589
G1 X73.55 Y179.801 E41.57189
G1 X73.017 Y179.687 E41.59002
G1 X72.057 Y179.443 E41.62297
G1 X71.139 Y179.162 E41.6549
G1 X70.656 Y178.995 E41.6719
G1 X69.753 Y178.645 E41.70411
G1 X69.302 Y178.452 E41.72042
G1 X68.84 Y178.24 E41.73733
G1 X68.368 Y178.008 E41.75482
G1 X67.953 Y177.791 E41.7704
G1 X67.481 Y177.528 E41.78837
G1 X66.89 Y177.178 E41.81122
G1 X66.206 Y176.735 E41.83832
G1 X65.55 Y176.272 E41.86503
G1 X65.047 Y175.894 E41.88595
G1 X64.672 Y175.593 E41.90195
G1 X64.288 Y175.268 E41.91868
G1 X63.889 Y174.914 E41.93642
