;FLAVOR:Marlin
;TIME:1296
;Filament used: 0.633664m
;Layer height: 0.2
;MINX:90.741
;MINY:97.927
;MINZ:0.2
;MAXX:144.258
;MAXY:141.124
;MAXZ:10
;TARGET_MACHINE.NAME:Creality Ender-3
;Generated with Cura_SteamEngine 5.7.0
M140 S80
M105
M190 S80
M104 S200
M105
M109 S200
M82 ;absolute extrusion mode
; Ender 3 Custom Start G-code
G92 E0 ; Reset Extruder
G28 ; Home all axes
G1 Z2.0 F3000 ; Move Z Axis up little to prevent scratching of Heat Bed
G1 X0.1 Y20 Z0.3 F5000.0 ; Move to start position
G1 X0.1 Y200.0 Z0.3 F1500.0 E15 ; Draw the first line
G1 X0.4 Y200.0 Z0.3 F5000.0 ; Move to side a little
G1 X0.4 Y20 Z0.3 F1500.0 E30 ; Draw the second line
G92 E0 ; Reset Extruder
G1 Z2.0 F3000 ; Move Z Axis up little to prevent scratching of Heat Bed
G1 X5 Y20 Z0.3 F5000.0 ; Move over to prevent blob squish
G92 E0
G92 E0
G1 F2700 E-5
;LAYER_COUNT:50
;LAYER:0
M107
G0 F6000 X95.772 Y109.45 Z0.2
;TYPE:SKIRT
G1 F2700 E0
G1 F300 X96.811 Y108.553 E0.04565
G1 X97.302 Y108.18 E0.06616
G1 X98.459 Y107.412 E0.11235
G1 X99.034 Y107.081 E0.13442
G1 X100.248 Y106.48 E0.17947
G1 X100.878 Y106.217 E0.20218
G1 X102.127 Y105.784 E0.24615
G1 X102.752 Y105.609 E0.26773
G1 X105.208 Y104.886 E0.35289
G1 X107.629 Y104.099 E0.43756
G1 X110.004 Y103.25 E0.52145
G1 X111.965 Y102.504 E0.59123
G1 X112.924 Y102.19 E0.62479
G1 X113.381 Y102.064 E0.64056
G1 X115.891 Y101.328 E0.72756
G1 X118.248 Y100.562 E0.80999
G1 X120.684 Y99.696 E0.89598
G1 X122.773 Y98.902 E0.97031
G1 X123.771 Y98.578 E1.0052
G1 X124.515 Y98.377 E1.03084
G1 X125.453 Y98.167 E1.06281
G1 X126.012 Y98.084 E1.0816
G1 X126.562 Y98.017 E1.10003
G1 X127.647 Y97.94 E1.13621
G1 X128.333 Y97.927 E1.15903
G1 X129.706 Y97.99 E1.20474
G1 X130.459 Y98.074 E1.22995
G1 X131.565 Y98.257 E1.26723
G1 X132.34 Y98.443 E1.29374
G1 X132.68 Y98.538 E1.30548
G1 X133.591 Y98.835 E1.33735
G1 X134.213 Y99.07 E1.35947
G1 X135.387 Y99.594 E1.40223
G1 X135.949 Y99.887 E1.42331
G1 X137.133 Y100.603 E1.46933
G1 X137.652 Y100.963 E1.49033
G1 X138.754 Y101.837 E1.53712
G1 X139.253 Y102.289 E1.55951
G1 X140.148 Y103.205 E1.6021
G1 X140.629 Y103.763 E1.62661
G1 X141.394 Y104.772 E1.66872
G1 X141.777 Y105.348 E1.69173
G1 X142.42 Y106.463 E1.73454
G1 X142.762 Y107.154 E1.76018
G1 X143.277 Y108.385 E1.80456
G1 X143.488 Y108.998 E1.82613
G1 X143.837 Y110.251 E1.86939
G1 X143.977 Y110.906 E1.89166
G1 X144.177 Y112.263 E1.93729
G1 X144.231 Y112.918 E1.95914
G1 X144.258 Y114.292 E2.00485
G1 X144.229 Y114.927 E2.026
G1 X144.095 Y116.202 E2.06864
G1 X143.969 Y116.958 E2.09413
G1 X143.792 Y117.797 E2.12265
G1 X143.13 Y120.443 E2.21337
G1 X142.579 Y122.941 E2.29845
G1 X141.992 Y126.07 E2.40433
G1 X141.635 Y128.158 E2.47479
G1 X141.339 Y129.42 E2.5179
G1 X141.14 Y130.08 E2.54083
G1 X140.68 Y131.32 E2.58482
G1 X140.373 Y132.007 E2.60985
G1 X139.75 Y133.192 E2.65437
G1 X139.439 Y133.703 E2.67427
G1 X138.672 Y134.804 E2.7189
G1 X138.251 Y135.335 E2.74144
G1 X137.346 Y136.339 E2.78639
G1 X136.888 Y136.787 E2.8077
G1 X135.85 Y137.683 E2.85331
G1 X135.359 Y138.056 E2.87382
G1 X134.196 Y138.829 E2.92027
G1 X133.637 Y139.151 E2.94172
G1 X132.413 Y139.757 E2.98715
G1 X131.821 Y140.004 E3.00848
G1 X130.525 Y140.452 E3.05409
G1 X129.751 Y140.664 E3.08078
G1 X128.87 Y140.865 E3.11084
G1 X128.229 Y140.966 E3.13242
G1 X127.684 Y141.033 E3.15068
G1 X126.566 Y141.112 E3.18796
G1 X125.879 Y141.124 E3.21082
G1 X124.529 Y141.062 E3.25576
G1 X123.741 Y140.975 E3.28213
G1 X122.77 Y140.822 E3.31483
G1 X122.032 Y140.648 E3.34005
G1 X121.456 Y140.488 E3.35993
G1 X120.574 Y140.224 E3.39055
G1 X118.06 Y139.502 E3.47755
G1 X115.671 Y138.89 E3.55957
G1 X113.146 Y138.316 E3.64569
G1 X110.684 Y137.829 E3.72917
G1 X108.241 Y137.419 E3.81156
G1 X105.657 Y137.059 E3.89833
G1 X104.582 Y136.931 E3.93434
G1 X103.438 Y136.728 E3.97298
G1 X102.682 Y136.549 E3.99882
G1 X101.432 Y136.169 E4.04228
G1 X100.837 Y135.947 E4.0634
G1 X99.556 Y135.374 E4.11007
G1 X98.874 Y135.012 E4.13576
G1 X98.047 Y134.526 E4.16766
G1 X97.57 Y134.199 E4.18689
G1 X97.092 Y133.85 E4.20658
G1 X96.168 Y133.093 E4.24631
G1 X95.611 Y132.583 E4.27143
G1 X94.973 Y131.945 E4.30144
G1 X94.571 Y131.483 E4.32181
G1 X94.225 Y131.061 E4.33996
G1 X93.588 Y130.2 E4.37558
G1 X93.216 Y129.639 E4.39797
G1 X92.578 Y128.532 E4.44046
G1 X92.238 Y127.844 E4.46599
G1 X91.72 Y126.605 E4.51065
G1 X91.518 Y126.022 E4.53118
G1 X91.153 Y124.709 E4.5765
G1 X91.019 Y124.076 E4.59802
G1 X90.826 Y122.761 E4.64223
G1 X90.77 Y122.095 E4.66446
G1 X90.741 Y120.704 E4.71073
G1 X90.77 Y120.067 E4.73194
G1 X90.901 Y118.813 E4.77388
G1 X91.027 Y118.071 E4.79891
G1 X91.337 Y116.751 E4.84401
G1 X91.532 Y116.112 E4.86623
G1 X91.976 Y114.92 E4.90853
G1 X92.266 Y114.271 E4.93218
G1 X92.888 Y113.086 E4.97669
G1 X93.269 Y112.463 E5.00098
G1 X94.006 Y111.408 E5.04378
G1 X94.41 Y110.9 E5.06537
G1 X95.311 Y109.901 E5.11011
G1 X95.772 Y109.45 E5.13156
G0 F6000 X96.052 Y109.736
G1 F300 X97.053 Y108.872 E5.17554
G1 X97.544 Y108.499 E5.19605
G1 X98.659 Y107.759 E5.24056
G1 X99.234 Y107.428 E5.26263
G1 X100.402 Y106.849 E5.30599
G1 X101.009 Y106.595 E5.32787
G1 X102.235 Y106.169 E5.37104
G1 X102.865 Y105.993 E5.3928
G1 X105.321 Y105.27 E5.47795
G1 X107.764 Y104.475 E5.5634
G1 X110.139 Y103.627 E5.64728
G1 X112.09 Y102.884 E5.71671
G1 X113.03 Y102.576 E5.74961
G1 X113.487 Y102.45 E5.76538
G1 X116.004 Y101.712 E5.85262
G1 X118.382 Y100.939 E5.93579
G1 X120.818 Y100.073 E6.02178
G1 X122.897 Y99.282 E6.09576
G1 X123.875 Y98.964 E6.12996
G1 X124.603 Y98.767 E6.15505
G1 X125.512 Y98.563 E6.18603
G1 X126.061 Y98.481 E6.2045
G1 X126.59 Y98.416 E6.22222
G1 X127.655 Y98.34 E6.25774
G1 X128.315 Y98.327 E6.27969
G1 X129.662 Y98.388 E6.32454
G1 X130.394 Y98.469 E6.34903
G1 X131.5 Y98.652 E6.38632
G1 X132.233 Y98.828 E6.41139
G1 X132.556 Y98.918 E6.42254
G1 X133.45 Y99.209 E6.45381
G1 X134.05 Y99.435 E6.47514
G1 X135.202 Y99.949 E6.5171
G1 X135.764 Y100.242 E6.53818
G1 X136.905 Y100.932 E6.58253
G1 X137.424 Y101.292 E6.60353
G1 X138.486 Y102.134 E6.64861
G1 X138.967 Y102.569 E6.67018
G1 X139.862 Y103.485 E6.71278
G1 X140.31 Y104.005 E6.7356
G1 X141.075 Y105.014 E6.77772
G1 X141.43 Y105.548 E6.79905
G1 X142.073 Y106.663 E6.84186
G1 X142.393 Y107.309 E6.86583
G1 X142.899 Y108.516 E6.90936
G1 X143.103 Y109.106 E6.93013
G1 X143.446 Y110.335 E6.97257
G1 X143.581 Y110.965 E6.994
G1 X143.778 Y112.296 E7.03875
G1 X143.832 Y112.951 E7.06061
G1 X143.858 Y114.274 E7.10462
G1 X143.831 Y114.885 E7.12496
G1 X143.7 Y116.136 E7.1668
G1 X143.574 Y116.892 E7.19229
G1 X143.404 Y117.7 E7.21975
G1 X142.739 Y120.357 E7.31085
G1 X142.188 Y122.855 E7.39593
G1 X141.599 Y125.996 E7.50222
G1 X141.246 Y128.067 E7.5721
G1 X140.956 Y129.305 E7.61439
G1 X140.765 Y129.941 E7.63647
G1 X140.305 Y131.181 E7.68046
G1 X140.019 Y131.821 E7.70378
G1 X139.408 Y132.984 E7.74747
G1 X139.097 Y133.495 E7.76737
G1 X138.359 Y134.556 E7.81035
G1 X137.954 Y135.067 E7.83204
G1 X137.066 Y136.053 E7.87617
G1 X136.608 Y136.501 E7.89748
G1 X135.608 Y137.364 E7.94142
G1 X135.117 Y137.737 E7.96193
G1 X133.996 Y138.482 E8.00669
G1 X133.437 Y138.804 E8.02815
G1 X132.258 Y139.388 E8.07191
G1 X131.69 Y139.626 E8.09239
G1 X130.419 Y140.066 E8.13713
G1 X129.662 Y140.274 E8.16324
G1 X128.781 Y140.475 E8.19329
G1 X128.18 Y140.569 E8.21353
G1 X127.656 Y140.634 E8.23109
G1 X126.559 Y140.712 E8.26767
G1 X125.897 Y140.724 E8.28969
G1 X124.572 Y140.664 E8.3338
G1 X123.803 Y140.58 E8.35953
G1 X122.862 Y140.433 E8.39121
G1 X122.139 Y140.262 E8.41592
G1 X121.571 Y140.105 E8.43552
G1 X120.689 Y139.841 E8.46614
G1 X118.164 Y139.116 E8.55352
G1 X115.76 Y138.5 E8.63606
G1 X113.235 Y137.926 E8.72218
G1 X110.762 Y137.437 E8.80603
G1 X108.296 Y137.023 E8.8892
G1 X105.712 Y136.663 E8.97597
G1 X104.652 Y136.537 E9.01147
G1 X103.508 Y136.334 E9.05012
G1 X102.798 Y136.166 E9.07438
G1 X101.572 Y135.794 E9.117
G1 X100.977 Y135.572 E9.13812
G1 X99.743 Y135.02 E9.18308
G1 X99.076 Y134.667 E9.20818
G1 X98.273 Y134.196 E9.23914
G1 X97.806 Y133.876 E9.25797
G1 X97.345 Y133.54 E9.27695
G1 X96.438 Y132.798 E9.31592
G1 X95.894 Y132.3 E9.34045
G1 X95.256 Y131.662 E9.37046
G1 X94.88 Y131.229 E9.38954
G1 X94.547 Y130.823 E9.407
G1 X93.91 Y129.962 E9.44262
G1 X93.563 Y129.439 E9.4635
G1 X92.925 Y128.332 E9.50599
G1 X92.607 Y127.69 E9.52982
G1 X92.098 Y126.474 E9.57367
G1 X91.896 Y125.891 E9.59419
G1 X91.544 Y124.626 E9.63786
G1 X91.415 Y124.018 E9.65853
G1 X91.225 Y122.727 E9.70194
G1 X91.169 Y122.061 E9.72417
G1 X91.141 Y120.722 E9.76871
G1 X91.168 Y120.109 E9.78912
G1 X91.299 Y118.855 E9.83105
G1 X91.416 Y118.162 E9.85443
G1 X91.72 Y116.867 E9.89867
G1 X91.907 Y116.252 E9.92005
G1 X92.351 Y115.06 E9.96236
G1 X92.62 Y114.457 E9.98432
G1 X93.23 Y113.294 E10.028
G1 X93.597 Y112.692 E10.05145
G1 X94.319 Y111.657 E10.09342
G1 X94.707 Y111.168 E10.11418
G1 X95.591 Y110.187 E10.15811
G1 X96.052 Y109.736 E10.17956
G0 F6000 X96.332 Y110.022
G1 F300 X97.295 Y109.191 E10.22186
G1 X97.786 Y108.818 E10.24237
G1 X98.859 Y108.105 E10.28522
G1 X99.412 Y107.786 E10.30645
G1 X100.557 Y107.218 E10.34896
G1 X101.14 Y106.973 E10.37
G1 X102.366 Y106.547 E10.41317
G1 X102.978 Y106.377 E10.43429
G1 X105.434 Y105.654 E10.51944
G1 X107.898 Y104.852 E10.60563
G1 X110.282 Y104.001 E10.68982
G1 X112.215 Y103.264 E10.75863
G1 X113.136 Y102.962 E10.79087
G1 X113.593 Y102.836 E10.80663
G1 X116.117 Y102.096 E10.89411
G1 X118.516 Y101.316 E10.97802
G1 X120.952 Y100.45 E11.06401
G1 X123.021 Y99.662 E11.13764
G1 X123.98 Y99.35 E11.17119
G1 X124.691 Y99.157 E11.19569
G1 X125.572 Y98.959 E11.22572
G1 X126.11 Y98.878 E11.24382
G1 X126.619 Y98.815 E11.26088
G1 X127.663 Y98.74 E11.29569
G1 X128.297 Y98.727 E11.31678
G1 X129.618 Y98.786 E11.36076
G1 X130.329 Y98.864 E11.38455
G1 X131.435 Y99.047 E11.42184
G1 X132.127 Y99.214 E11.44551
G1 X132.432 Y99.298 E11.45604
G1 X133.309 Y99.583 E11.48671
G1 X133.887 Y99.8 E11.50724
G1 X135.017 Y100.304 E11.54839
G1 X135.579 Y100.597 E11.56947
G1 X136.677 Y101.261 E11.61215
G1 X137.196 Y101.621 E11.63316
G1 X138.218 Y102.431 E11.67653
G1 X138.681 Y102.849 E11.69728
G1 X139.576 Y103.765 E11.73988
G1 X139.991 Y104.247 E11.76103
G1 X140.756 Y105.256 E11.80314
G1 X141.083 Y105.748 E11.82279
G1 X141.726 Y106.863 E11.8656
G1 X142.024 Y107.464 E11.88791
G1 X142.521 Y108.647 E11.93059
G1 X142.718 Y109.214 E11.95056
G1 X143.055 Y110.419 E11.99217
G1 X143.185 Y111.024 E12.01276
G1 X143.379 Y112.329 E12.05664
G1 X143.433 Y112.984 E12.0785
G1 X143.458 Y114.257 E12.12084
G1 X143.433 Y114.843 E12.14035
G1 X143.302 Y116.094 E12.18219
G1 X143.182 Y116.81 E12.20633
G1 X143.016 Y117.603 E12.23328
G1 X142.348 Y120.271 E12.32476
G1 X141.797 Y122.769 E12.40984
G1 X141.206 Y125.922 E12.51654
G1 X140.857 Y127.976 E12.58583
G1 X140.573 Y129.19 E12.6273
G1 X140.39 Y129.802 E12.64854
G1 X139.93 Y131.042 E12.69253
G1 X139.665 Y131.635 E12.71414
G1 X139.066 Y132.776 E12.757
G1 X138.755 Y133.287 E12.77689
G1 X138.045 Y134.308 E12.81826
G1 X137.657 Y134.799 E12.83907
G1 X136.786 Y135.767 E12.88238
G1 X136.328 Y136.215 E12.90369
G1 X135.366 Y137.045 E12.94595
G1 X134.875 Y137.418 E12.96646
G1 X133.796 Y138.135 E13.00955
G1 X133.237 Y138.457 E13.031
G1 X132.103 Y139.019 E13.0731
G1 X131.559 Y139.248 E13.09273
G1 X130.313 Y139.68 E13.13659
G1 X129.573 Y139.884 E13.16212
G1 X128.692 Y140.085 E13.19218
G1 X128.13 Y140.172 E13.21109
G1 X127.627 Y140.235 E13.22795
G1 X126.551 Y140.312 E13.26383
G1 X125.915 Y140.324 E13.28499
G1 X124.615 Y140.266 E13.32827
G1 X123.846 Y140.182 E13.354
G1 X122.954 Y140.044 E13.38402
G1 X122.245 Y139.876 E13.40826
G1 X121.686 Y139.722 E13.42754
G1 X120.804 Y139.458 E13.45816
G1 X118.268 Y138.73 E13.54592
G1 X115.849 Y138.11 E13.62897
G1 X113.324 Y137.536 E13.7151
G1 X110.84 Y137.045 E13.79931
G1 X108.351 Y136.627 E13.88326
G1 X105.767 Y136.267 E13.97003
G1 X104.722 Y136.143 E14.00503
G1 X103.578 Y135.94 E14.04368
G1 X102.914 Y135.783 E14.06637
G1 X101.711 Y135.419 E14.10817
G1 X101.14 Y135.207 E14.12843
G1 X99.93 Y134.666 E14.17252
G1 X99.278 Y134.322 E14.19704
G1 X98.499 Y133.866 E14.22706
G1 X98.041 Y133.552 E14.24553
G1 X97.598 Y133.23 E14.26374
G1 X96.708 Y132.503 E14.30196
G1 X96.177 Y132.017 E14.32591
G1 X95.539 Y131.379 E14.35592
G1 X95.189 Y130.975 E14.37369
G1 X94.868 Y130.585 E14.39049
G1 X94.243 Y129.741 E14.42542
G1 X93.91 Y129.239 E14.44546
G1 X93.272 Y128.132 E14.48796
G1 X92.976 Y127.535 E14.51012
G1 X92.476 Y126.343 E14.55311
G1 X92.274 Y125.76 E14.57363
G1 X91.935 Y124.543 E14.61565
G1 X91.811 Y123.96 E14.63548
G1 X91.624 Y122.693 E14.67807
G1 X91.568 Y122.027 E14.7003
G1 X91.541 Y120.739 E14.74315
G1 X91.566 Y120.151 E14.76273
G1 X91.697 Y118.897 E14.80466
G1 X91.805 Y118.253 E14.82638
G1 X92.103 Y116.983 E14.86977
G1 X92.282 Y116.392 E14.89031
G1 X92.726 Y115.2 E14.93261
G1 X92.974 Y114.643 E14.95289
G1 X93.584 Y113.48 E14.99657
G1 X93.925 Y112.921 E15.01835
G1 X94.633 Y111.905 E15.05954
G1 X95.004 Y111.436 E15.07943
G1 X95.871 Y110.473 E15.12253
G1 X96.332 Y110.022 E15.14398
G1 F2700 E10.14398
;MESH:AxleCaps.stl(2)
G0 F6000 X102.176 Y117.71
G0 X106.985 Y125.48
;TYPE:WALL-INNER
G1 F2700 E15.14398
G1 F300 X107.535 Y125.409 E15.16242
G1 X108.078 Y125.272 E15.18105
G1 X108.579 Y125.072 E15.19899
G1 X109.082 Y124.796 E15.21807
G1 X109.513 Y124.484 E15.23577
G1 X109.925 Y124.097 E15.25457
G1 X110.269 Y123.679 E15.27258
G1 X110.569 Y123.206 E15.2912
G1 X110.801 Y122.714 E15.3093
G1 X110.973 Y122.182 E15.32789
G1 X111.075 Y121.648 E15.34597
G1 X111.11 Y121.089 E15.3646
G1 X111.075 Y120.532 E15.38317
G1 X110.973 Y119.997 E15.40128
G1 X110.804 Y119.469 E15.41972
G1 X110.569 Y118.97 E15.43807
G1 X110.277 Y118.51 E15.45619
G1 X109.921 Y118.08 E15.47475
G1 X109.521 Y117.704 E15.49301
G1 X109.073 Y117.38 E15.5114
G1 X108.583 Y117.108 E15.53004
G1 X108.077 Y116.908 E15.54814
G1 X107.532 Y116.767 E15.56686
G1 X106.987 Y116.7 E15.58513
G1 X106.443 Y116.7 E15.60322
G1 X105.889 Y116.771 E15.6218
G1 X105.349 Y116.908 E15.64033
G1 X104.853 Y117.104 E15.65806
G1 X104.355 Y117.38 E15.677
G1 X103.907 Y117.704 E15.69539
G1 X103.511 Y118.076 E15.71346
G1 X103.158 Y118.502 E15.73186
G1 X102.859 Y118.971 E15.75036
G1 X102.628 Y119.461 E15.76838
G1 X102.455 Y119.997 E15.78711
G1 X102.353 Y120.532 E15.80523
G1 X102.318 Y121.089 E15.82379
G1 X102.353 Y121.644 E15.84229
G1 X102.455 Y122.184 E15.86056
G1 X102.624 Y122.711 E15.87897
G1 X102.855 Y123.202 E15.89702
G1 X103.155 Y123.674 E15.91562
G1 X103.506 Y124.099 E15.93395
G1 X103.915 Y124.48 E15.95254
G1 X104.343 Y124.792 E15.97016
G1 X104.853 Y125.072 E15.98951
G1 X105.35 Y125.272 E16.00733
G1 X105.896 Y125.409 E16.02605
G1 X106.443 Y125.48 E16.0444
G1 X106.985 Y125.48 E16.06243
G0 F6000 X107.011 Y125.88
;TYPE:WALL-OUTER
G1 F300 X107.61 Y125.803 E16.08251
G1 X108.202 Y125.653 E16.10282
G1 X108.75 Y125.434 E16.12245
G1 X109.296 Y125.134 E16.14317
G1 X109.768 Y124.793 E16.16254
G1 X110.217 Y124.371 E16.18304
G1 X110.593 Y123.914 E16.20272
G1 X110.92 Y123.399 E16.22301
G1 X111.173 Y122.862 E16.24275
G1 X111.361 Y122.282 E16.26303
G1 X111.473 Y121.698 E16.28281
G1 X111.511 Y121.089 E16.3031
G1 X111.473 Y120.482 E16.32333
G1 X111.361 Y119.898 E16.34311
G1 X111.177 Y119.322 E16.36322
G1 X110.92 Y118.777 E16.38326
G1 X110.601 Y118.274 E16.40307
G1 X110.213 Y117.806 E16.42329
G1 X109.776 Y117.395 E16.44325
G1 X109.288 Y117.042 E16.46328
G1 X108.754 Y116.746 E16.48359
G1 X108.201 Y116.527 E16.50337
G1 X107.606 Y116.373 E16.52381
G1 X107.011 Y116.3 E16.54375
G1 X106.417 Y116.3 E16.5635
G1 X105.814 Y116.377 E16.58372
G1 X105.226 Y116.527 E16.60391
G1 X104.682 Y116.742 E16.62336
G1 X104.14 Y117.042 E16.64397
G1 X103.652 Y117.395 E16.664
G1 X103.219 Y117.802 E16.68376
G1 X102.834 Y118.266 E16.70382
G1 X102.508 Y118.777 E16.72398
G1 X102.255 Y119.314 E16.74372
G1 X102.067 Y119.898 E16.76413
G1 X101.955 Y120.482 E16.7839
G1 X101.917 Y121.089 E16.80413
G1 X101.955 Y121.694 E16.82429
G1 X102.067 Y122.282 E16.8442
G1 X102.251 Y122.858 E16.86431
G1 X102.504 Y123.395 E16.88406
G1 X102.831 Y123.91 E16.90435
G1 X103.214 Y124.374 E16.92436
G1 X103.66 Y124.789 E16.94462
G1 X104.128 Y125.13 E16.96388
G1 X104.682 Y125.434 E16.9849
G1 X105.226 Y125.653 E17.0044
G1 X105.822 Y125.803 E17.02485
G1 X106.417 Y125.88 E17.0448
