;FLAVOR:Marlin
;TIME:7794
;Filament used: 4.11618m
;Layer height: 0.2
;MINX:52.5
;MINY:81.5
;MINZ:0.2
;MAXX:146
;MAXY:153.5
;MAXZ:7
;TARGET_MACHINE.NAME:Creality Ender-3
;Generated with Cura_SteamEngine 5.7.0
M140 S80
M105
M190 S80
M104 S200
M105
M109 S200
M82 ;absolute extrusion mode
; Ender 3 Custom Start G-code
G92 E0 ; Reset Extruder
G28 ; Home all axes
G1 Z2.0 F3000 ; Move Z Axis up little to prevent scratching of Heat Bed
G1 X0.1 Y20 Z0.3 F5000.0 ; Move to start position
G1 X0.1 Y200.0 Z0.3 F1500.0 E15 ; Draw the first line
G1 X0.4 Y200.0 Z0.3 F5000.0 ; Move to side a little
G1 X0.4 Y20 Z0.3 F1500.0 E30 ; Draw the second line
G92 E0 ; Reset Extruder
G1 Z2.0 F3000 ; Move Z Axis up little to prevent scratching of Heat Bed
G1 X5 Y20 Z0.3 F5000.0 ; Move over to prevent blob squish
G92 E0
G92 E0
G1 F2700 E-5
;LAYER_COUNT:35
;LAYER:0
M107
G0 F6000 X57.424 Y83.346 Z0.2
;TYPE:SKIRT
G1 F2700 E0
G1 F300 X58.321 Y82.811 E0.03474
G1 X59.199 Y82.39 E0.06712
G1 X60.112 Y82.048 E0.09955
G1 X61.049 Y81.789 E0.13188
G1 X62.016 Y81.611 E0.16459
G1 X63.155 Y81.515 E0.2026
G1 X63.812 Y81.5 E0.22446
G1 X134.304 Y81.5 E2.56904
G1 X135.184 Y81.513 E2.59831
G1 X136.156 Y81.572 E2.6307
G1 X137.119 Y81.718 E2.66309
G1 X138.066 Y81.949 E2.69551
G1 X138.954 Y82.249 E2.72669
G1 X139.846 Y82.639 E2.75907
G1 X140.729 Y83.126 E2.79261
G1 X141.48 Y83.628 E2.82265
G1 X142.295 Y84.286 E2.85749
G1 X142.993 Y84.964 E2.88986
G1 X143.629 Y85.701 E2.92223
G1 X144.199 Y86.491 E2.95463
G1 X144.661 Y87.267 E2.98467
G1 X145.115 Y88.209 E3.01945
G1 X145.444 Y89.087 E3.05064
G1 X145.713 Y90.059 E3.08418
G1 X145.89 Y91.025 E3.11685
G1 X145.985 Y92.155 E3.15456
G1 X146 Y92.83 E3.17702
G1 X145.999 Y141.9 E4.80909
G1 X145.988 Y142.663 E4.83447
G1 X145.931 Y143.636 E4.86689
G1 X145.786 Y144.599 E4.89928
G1 X145.557 Y145.545 E4.93165
G1 X145.246 Y146.469 E4.96408
G1 X144.854 Y147.36 E4.99646
G1 X144.386 Y148.212 E5.02879
G1 X143.864 Y148.993 E5.06003
G1 X143.231 Y149.778 E5.09357
G1 X142.606 Y150.429 E5.12359
G1 X141.817 Y151.117 E5.15841
G1 X141.057 Y151.667 E5.18961
G1 X140.19 Y152.184 E5.22318
G1 X139.312 Y152.606 E5.25558
G1 X138.401 Y152.948 E5.28795
G1 X137.462 Y153.209 E5.32036
G1 X136.496 Y153.387 E5.35303
G1 X135.345 Y153.485 E5.39145
G1 X134.67 Y153.5 E5.41391
G1 X64.064 Y153.499 E7.76228
G1 X63.331 Y153.488 E7.78666
G1 X62.359 Y153.431 E7.81904
G1 X61.396 Y153.285 E7.85144
G1 X60.45 Y153.056 E7.88381
G1 X59.526 Y152.744 E7.91625
G1 X58.636 Y152.352 E7.94859
G1 X57.813 Y151.901 E7.97981
G1 X56.974 Y151.34 E8.01338
G1 X56.27 Y150.774 E8.04342
G1 X55.517 Y150.049 E8.07819
G1 X54.88 Y149.313 E8.11056
G1 X54.35 Y148.582 E8.14059
G1 X53.814 Y147.685 E8.17535
G1 X53.392 Y146.807 E8.20775
G1 X53.05 Y145.895 E8.24014
G1 X52.79 Y144.957 E8.27252
G1 X52.612 Y143.988 E8.30529
G1 X52.514 Y142.809 E8.34464
G1 X52.5 Y142.158 E8.36629
G1 X52.501 Y93.025 E10.00046
G1 X52.512 Y92.325 E10.02375
G1 X52.57 Y91.352 E10.05617
G1 X52.716 Y90.389 E10.08856
G1 X52.946 Y89.443 E10.12094
G1 X53.259 Y88.52 E10.15336
G1 X53.651 Y87.63 E10.18571
G1 X54.121 Y86.777 E10.2181
G1 X54.664 Y85.969 E10.25048
G1 X55.231 Y85.265 E10.28054
G1 X55.956 Y84.513 E10.31528
G1 X56.692 Y83.876 E10.34766
G1 X57.424 Y83.346 E10.37772
G0 F6000 X57.659 Y83.67
G1 F300 X58.495 Y83.171 E10.4101
G1 X59.34 Y82.764 E10.44129
G1 X60.219 Y82.433 E10.47253
G1 X61.122 Y82.182 E10.50371
G1 X62.05 Y82.01 E10.5351
G1 X63.189 Y81.914 E10.57312
G1 X63.821 Y81.9 E10.59414
G1 X134.298 Y81.9 E12.93822
G1 X135.16 Y81.912 E12.96689
G1 X136.097 Y81.968 E12.99811
G1 X137.025 Y82.107 E13.02932
G1 X137.938 Y82.328 E13.06056
G1 X138.794 Y82.616 E13.0906
G1 X139.686 Y83.006 E13.12298
G1 X140.507 Y83.459 E13.15417
G1 X141.258 Y83.961 E13.18421
G1 X142.017 Y84.573 E13.21664
G1 X142.691 Y85.226 E13.24785
G1 X143.305 Y85.935 E13.27905
G1 X143.855 Y86.696 E13.31028
G1 X144.317 Y87.472 E13.34032
G1 X144.74 Y88.349 E13.3727
G1 X145.069 Y89.227 E13.40389
G1 X145.32 Y90.132 E13.43512
G1 X145.491 Y91.059 E13.46648
G1 X145.586 Y92.189 E13.50419
G1 X145.6 Y92.83 E13.52552
G1 X145.599 Y141.895 E15.15743
G1 X145.589 Y142.64 E15.18221
G1 X145.535 Y143.577 E15.21342
G1 X145.397 Y144.506 E15.24466
G1 X145.178 Y145.418 E15.27586
G1 X144.88 Y146.308 E15.30707
G1 X144.503 Y147.168 E15.33831
G1 X144.053 Y147.99 E15.36947
G1 X143.531 Y148.771 E15.40072
G1 X142.942 Y149.501 E15.43192
G1 X142.317 Y150.152 E15.46193
G1 X141.582 Y150.793 E15.49437
G1 X140.822 Y151.343 E15.52557
G1 X140.016 Y151.824 E15.55679
G1 X139.171 Y152.232 E15.588
G1 X138.293 Y152.563 E15.61921
G1 X137.389 Y152.816 E15.65043
G1 X136.462 Y152.988 E15.68179
G1 X135.311 Y153.086 E15.72021
G1 X134.67 Y153.1 E15.74153
G1 X64.07 Y153.099 E18.0897
G1 X63.354 Y153.089 E18.11352
G1 X62.418 Y153.035 E18.1447
G1 X61.489 Y152.896 E18.17594
G1 X60.577 Y152.677 E18.20714
G1 X59.687 Y152.378 E18.23836
G1 X58.828 Y152.001 E18.26957
G1 X58.005 Y151.55 E18.30078
G1 X57.225 Y151.028 E18.332
G1 X56.521 Y150.462 E18.36204
G1 X55.819 Y149.787 E18.39443
G1 X55.204 Y149.078 E18.42565
G1 X54.674 Y148.347 E18.45568
G1 X54.174 Y147.511 E18.48808
G1 X53.766 Y146.666 E18.51929
G1 X53.435 Y145.788 E18.5505
G1 X53.183 Y144.884 E18.58171
G1 X53.011 Y143.955 E18.61313
G1 X52.913 Y142.776 E18.65248
G1 X52.9 Y142.158 E18.67304
G1 X52.901 Y93.031 E20.30701
G1 X52.911 Y92.348 E20.32973
G1 X52.966 Y91.411 E20.36095
G1 X53.105 Y90.483 E20.39216
G1 X53.325 Y89.571 E20.42336
G1 X53.625 Y88.681 E20.4546
G1 X54.002 Y87.822 E20.4858
G1 X54.453 Y87 E20.51699
G1 X54.976 Y86.22 E20.54822
G1 X55.543 Y85.516 E20.57829
G1 X56.218 Y84.815 E20.61065
G1 X56.927 Y84.2 E20.64187
G1 X57.659 Y83.67 E20.67193
G0 F6000 X57.894 Y83.994
G1 F300 X58.669 Y83.531 E20.70196
G1 X59.482 Y83.138 E20.73199
G1 X60.327 Y82.818 E20.76204
G1 X61.196 Y82.575 E20.79205
G1 X62.084 Y82.409 E20.8221
G1 X63.223 Y82.313 E20.86012
G1 X63.83 Y82.3 E20.88031
G1 X134.293 Y82.3 E23.22392
G1 X135.137 Y82.311 E23.25199
G1 X136.039 Y82.364 E23.28205
G1 X136.932 Y82.496 E23.31207
G1 X137.81 Y82.707 E23.3421
G1 X138.666 Y82.995 E23.37214
G1 X139.493 Y83.357 E23.40217
G1 X140.285 Y83.792 E23.43222
G1 X141.036 Y84.294 E23.46227
G1 X141.739 Y84.861 E23.49231
G1 X142.389 Y85.488 E23.52235
G1 X142.981 Y86.17 E23.55238
G1 X143.511 Y86.901 E23.58241
G1 X143.973 Y87.677 E23.61245
G1 X144.366 Y88.49 E23.64249
G1 X144.684 Y89.335 E23.67251
G1 X144.927 Y90.205 E23.70256
G1 X145.092 Y91.093 E23.7326
G1 X145.187 Y92.223 E23.77032
G1 X145.2 Y92.83 E23.79051
G1 X145.199 Y141.89 E25.42225
G1 X145.19 Y142.617 E25.44643
G1 X145.139 Y143.519 E25.47648
G1 X145.008 Y144.413 E25.50653
G1 X144.799 Y145.291 E25.53655
G1 X144.513 Y146.148 E25.5666
G1 X144.152 Y146.976 E25.59664
G1 X143.72 Y147.768 E25.62665
G1 X143.219 Y148.52 E25.6567
G1 X142.653 Y149.224 E25.68675
G1 X142.028 Y149.875 E25.71676
G1 X141.347 Y150.469 E25.74682
G1 X140.616 Y151 E25.77687
G1 X139.842 Y151.464 E25.80689
G1 X139.029 Y151.858 E25.83693
G1 X138.185 Y152.178 E25.86696
G1 X137.315 Y152.423 E25.89702
G1 X136.428 Y152.589 E25.92703
G1 X135.277 Y152.687 E25.96545
G1 X134.67 Y152.7 E25.98565
G1 X64.075 Y152.699 E28.33365
G1 X63.377 Y152.69 E28.35686
G1 X62.476 Y152.639 E28.38688
G1 X61.582 Y152.507 E28.41693
G1 X60.704 Y152.298 E28.44695
G1 X59.847 Y152.011 E28.47701
G1 X59.02 Y151.65 E28.50703
G1 X58.227 Y151.217 E28.53708
G1 X57.476 Y150.716 E28.5671
G1 X56.772 Y150.15 E28.59715
G1 X56.121 Y149.524 E28.62719
G1 X55.528 Y148.843 E28.65722
G1 X54.998 Y148.112 E28.68725
G1 X54.534 Y147.337 E28.71729
G1 X54.14 Y146.524 E28.74734
G1 X53.82 Y145.68 E28.77736
G1 X53.576 Y144.81 E28.80742
G1 X53.41 Y143.922 E28.83746
G1 X53.313 Y142.767 E28.87601
G1 X53.3 Y142.158 E28.89627
G1 X53.301 Y93.036 E30.53008
G1 X53.31 Y92.371 E30.5522
G1 X53.362 Y91.469 E30.58225
G1 X53.494 Y90.576 E30.61227
G1 X53.704 Y89.698 E30.6423
G1 X53.991 Y88.841 E30.67236
G1 X54.353 Y88.014 E30.70239
G1 X54.786 Y87.222 E30.73241
G1 X55.288 Y86.471 E30.76245
G1 X55.855 Y85.767 E30.79252
G1 X56.481 Y85.117 E30.82253
G1 X57.162 Y84.524 E30.85257
G1 X57.894 Y83.994 E30.88262
G1 F2700 E25.88262
;MESH:MasterLink.stl
G0 F6000 X66.561 Y94.688
G0 X69.636 Y100.52
;TYPE:WALL-INNER
G1 F2700 E30.88262
G1 F300 X68.894 Y100.699 E30.90801
G1 X68.105 Y100.705 E30.93425
G1 X67.352 Y100.517 E30.96007
G1 X66.666 Y100.16 E30.98579
G1 X66.084 Y99.642 E31.0117
G1 X65.636 Y98.997 E31.03782
G1 X65.365 Y98.278 E31.06338
G1 X65.271 Y97.5 E31.08944
G1 X65.365 Y96.721 E31.11554
G1 X65.635 Y95.999 E31.14118
G1 X66.082 Y95.36 E31.16712
G1 X66.665 Y94.837 E31.19317
G1 X67.357 Y94.477 E31.21911
G1 X68.108 Y94.292 E31.24484
G1 X68.893 Y94.292 E31.27094
G1 X69.64 Y94.478 E31.29655
G1 X70.332 Y94.837 E31.32248
G1 X70.916 Y95.357 E31.34849
G1 X71.359 Y95.998 E31.3744
G1 X71.632 Y96.725 E31.40023
G1 X71.73 Y97.502 E31.42628
G1 X71.626 Y98.282 E31.45245
G1 X71.363 Y98.99 E31.47757
G1 X70.917 Y99.639 E31.50376
G1 X70.332 Y100.157 E31.52975
G1 X69.636 Y100.52 E31.55586
G1 F2700 E26.55586
G0 F6000 X71.059 Y99.755
G0 X90.942 Y99.756
G0 X93.891 Y100.705
G1 F2700 E31.55586
G1 F300 X93.102 Y100.699 E31.5821
G1 X92.343 Y100.513 E31.60809
G1 X91.661 Y100.155 E31.63371
G1 X91.083 Y99.639 E31.65948
G1 X90.633 Y98.991 E31.68572
G1 X90.37 Y98.28 E31.71094
G1 X90.276 Y97.505 E31.7369
G1 X90.364 Y96.727 E31.76294
G1 X90.637 Y95.996 E31.7889
G1 X91.082 Y95.36 E31.81471
G1 X91.665 Y94.837 E31.84076
G1 X92.357 Y94.477 E31.86671
G1 X93.108 Y94.292 E31.89243
G1 X93.893 Y94.292 E31.91854
G1 X94.64 Y94.478 E31.94415
G1 X95.333 Y94.838 E31.97012
G1 X95.918 Y95.36 E31.9962
G1 X96.36 Y96.001 E32.02209
G1 X96.632 Y96.723 E32.04776
G1 X96.724 Y97.5 E32.07378
G1 X96.631 Y98.278 E32.09984
G1 X96.361 Y98.996 E32.12535
G1 X95.916 Y99.642 E32.15144
G1 X95.326 Y100.162 E32.1776
G1 X94.64 Y100.518 E32.20331
G1 X93.891 Y100.705 E32.22898
G1 F2700 E27.22898
G0 F6000 X93.911 Y134.11
G0 X94.64 Y140.519
G1 F2700 E32.22898
G1 F300 X93.888 Y140.704 E32.25474
G1 X93.103 Y140.704 E32.28085
G1 X92.356 Y140.518 E32.30645
G1 X91.669 Y140.161 E32.3322
G1 X91.084 Y139.642 E32.35822
G1 X90.636 Y138.997 E32.38434
G1 X90.364 Y138.275 E32.41
G1 X90.276 Y137.495 E32.4361
G1 X90.37 Y136.72 E32.46207
G1 X90.637 Y136.006 E32.48742
G1 X91.091 Y135.356 E32.51379
G1 X91.663 Y134.839 E32.53944
G1 X92.36 Y134.476 E32.56558
G1 X93.102 Y134.297 E32.59096
G1 X93.891 Y134.291 E32.61721
G1 X94.64 Y134.478 E32.64288
G1 X95.333 Y134.838 E32.66886
G1 X95.918 Y135.36 E32.69493
G1 X96.36 Y136.001 E32.72083
G1 X96.632 Y136.723 E32.74649
G1 X96.724 Y137.5 E32.77252
G1 X96.631 Y138.278 E32.79858
G1 X96.361 Y138.996 E32.82409
G1 X95.916 Y139.642 E32.85018
G1 X95.332 Y140.157 E32.87608
G1 X94.64 Y140.519 E32.90205
G1 F2700 E27.90205
G0 F6000 X96.043 Y139.796
G0 X97.7 Y139.796
G0 X97.9 Y141.9
G1 F2700 E32.90205
G1 F300 X97.9 Y93.1 E34.52515
G1 X64.1 Y93.1 E35.64934
G1 X64.101 Y141.899 E37.2724
G1 X97.9 Y141.9 E38.39656
G1 F2700 E33.39656
G0 F6000 X69.638 Y141.719
G0 X69.409 Y140.781
G0 X69.64 Y140.519
G1 F2700 E38.39656
G1 F300 X68.888 Y140.704 E38.42232
G1 X68.103 Y140.704 E38.44843
G1 X67.356 Y140.518 E38.47403
G1 X66.669 Y140.161 E38.49978
G1 X66.084 Y139.642 E38.52579
G1 X65.636 Y138.997 E38.55191
G1 X65.365 Y138.278 E38.57747
G1 X65.271 Y137.5 E38.60353
G1 X65.365 Y136.721 E38.62963
G1 X65.635 Y135.999 E38.65527
G1 X66.082 Y135.361 E38.68118
G1 X66.659 Y134.841 E38.70701
G1 X67.352 Y134.479 E38.73302
G1 X68.105 Y134.291 E38.75883
G1 X68.894 Y134.297 E38.78507
G1 X69.653 Y134.483 E38.81107
G1 X70.338 Y134.842 E38.83679
G1 X70.909 Y135.356 E38.86234
G1 X71.358 Y135.994 E38.88829
G1 X71.626 Y136.719 E38.914
G1 X71.724 Y137.495 E38.94001
G1 X71.632 Y138.275 E38.96614
G1 X71.361 Y138.995 E38.99172
G1 X70.916 Y139.642 E39.01784
G1 X70.332 Y140.157 E39.04374
G1 X69.64 Y140.519 E39.06971
G0 F6000 X69.477 Y140.147
;TYPE:WALL-OUTER
G1 F300 X68.851 Y140.302 E39.09116
G1 X68.131 Y140.299 E39.11511
G1 X67.519 Y140.147 E39.13608
G1 X66.915 Y139.838 E39.15865
G1 X66.371 Y139.355 E39.18285
G1 X65.984 Y138.787 E39.20571
G1 X65.754 Y138.167 E39.2277
G1 X65.677 Y137.524 E39.24924
G1 X65.764 Y136.797 E39.27359
G1 X65.984 Y136.209 E39.29447
G1 X66.402 Y135.611 E39.31874
G1 X66.915 Y135.158 E39.3415
G1 X67.519 Y134.849 E39.36407
G1 X68.131 Y134.697 E39.38504
G1 X68.842 Y134.693 E39.40869
G1 X69.494 Y134.854 E39.43103
G1 X70.1 Y135.169 E39.45374
G1 X70.613 Y135.625 E39.47657
G1 X70.996 Y136.176 E39.49889
G1 X71.243 Y136.842 E39.52252
G1 X71.324 Y137.498 E39.5445
G1 X71.232 Y138.203 E39.56815
G1 X70.989 Y138.83 E39.59051
G1 X70.597 Y139.39 E39.61325
G1 X70.081 Y139.838 E39.63598
G1 X69.477 Y140.147 E39.65854
G1 F2700 E34.65854
G0 F6000 X69.548 Y140.441
G0 X71.056 Y139.76
G0 X90.944 Y139.759
G0 X93.851 Y140.302
G1 F2700 E39.65854
G1 F300 X93.131 Y140.299 E39.68249
G1 X92.519 Y140.147 E39.70346
G1 X91.915 Y139.838 E39.72603
G1 X91.371 Y139.355 E39.75022
G1 X90.984 Y138.787 E39.77308
G1 X90.764 Y138.203 E39.79384
G1 X90.677 Y137.524 E39.81661
G1 X90.758 Y136.818 E39.84024
G1 X90.993 Y136.188 E39.86261
G1 X91.387 Y135.625 E39.88546
G1 X91.896 Y135.169 E39.90819
G1 X92.488 Y134.86 E39.9304
G1 X93.154 Y134.693 E39.95324
G1 X93.865 Y134.697 E39.97689
G1 X94.477 Y134.849 E39.99786
G1 X95.122 Y135.186 E40.02207
G1 X95.598 Y135.61 E40.04327
G1 X96.012 Y136.209 E40.06749
G1 X96.232 Y136.797 E40.08837
G1 X96.326 Y137.499 E40.11193
G1 X96.242 Y138.167 E40.13432
G1 X96.012 Y138.787 E40.15631
G1 X95.597 Y139.39 E40.18066
G1 X95.081 Y139.838 E40.20339
G1 X94.477 Y140.147 E40.22595
G1 X93.851 Y140.302 E40.2474
G1 F2700 E35.2474
G0 F6000 X93.922 Y140.595
G0 X95.433 Y140.309
G0 X95.431 Y141.719
G0 X98.3 Y142.3
G1 F2700 E40.2474
G1 F300 X98.3 Y92.7 E41.89711
G1 X63.7 Y92.7 E43.04791
G1 X63.701 Y142.299 E44.69758
G1 X98.3 Y142.3 E45.84834
G1 F2700 E40.84834
G0 F6000 X98.03 Y142.03
G0 X97.7 Y100.592
G0 X96.053 Y99.762
G0 X93.865 Y100.299
G1 F2700 E45.84834
G1 F300 X93.154 Y100.303 E45.87199
G1 X92.502 Y100.142 E45.89433
G1 X91.896 Y99.827 E45.91704
G1 X91.393 Y99.381 E45.9394
G1 X91 Y98.819 E45.96221
G1 X90.758 Y98.182 E45.98488
G1 X90.677 Y97.524 E46.00693
G1 X90.764 Y96.797 E46.03128
G1 X90.984 Y96.209 E46.05216
G1 X91.402 Y95.611 E46.07643
G1 X91.915 Y95.158 E46.09919
G1 X92.519 Y94.849 E46.12176
G1 X93.145 Y94.694 E46.14321
G1 X93.865 Y94.697 E46.16715
G1 X94.477 Y94.849 E46.18813
G1 X95.122 Y95.186 E46.21233
G1 X95.598 Y95.61 E46.23353
G1 X96.012 Y96.209 E46.25775
G1 X96.232 Y96.797 E46.27863
G1 X96.326 Y97.499 E46.30219
G1 X96.242 Y98.167 E46.32458
G1 X96.012 Y98.787 E46.34658
G1 X95.597 Y99.39 E46.37092
G1 X95.081 Y99.838 E46.39365
G1 X94.477 Y100.147 E46.41622
G1 X93.865 Y100.299 E46.43719
G1 F2700 E41.43719
G0 F6000 X93.936 Y100.592
G0 X93.131 Y100.545
G0 X92.549 Y100.402
G0 X90.942 Y99.756
G0 X71.059 Y99.755
G0 X69.508 Y100.136
G1 F2700 E46.43719
G1 F300 X68.842 Y100.303 E46.46003
G1 X68.131 Y100.299 E46.48368
G1 X67.519 Y100.147 E46.50465
G1 X66.915 Y99.838 E46.52721
G1 X66.371 Y99.355 E46.55141
G1 X65.984 Y98.787 E46.57427
G1 X65.754 Y98.167 E46.59627
G1 X65.677 Y97.524 E46.6178
G1 X65.764 Y96.797 E46.64216
G1 X65.984 Y96.209 E46.66304
G1 X66.402 Y95.611 E46.6873
G1 X66.915 Y95.158 E46.71007
G1 X67.519 Y94.849 E46.73263
G1 X68.145 Y94.694 E46.75408
G1 X68.865 Y94.697 E46.77803
G1 X69.477 Y94.849 E46.799
G1 X70.122 Y95.186 E46.82321
G1 X70.598 Y95.61 E46.84441
G1 X71.012 Y96.209 E46.86863
G1 X71.232 Y96.797 E46.88951
G1 X71.326 Y97.5 E46.9131
G1 X71.232 Y98.203 E46.93669
G1 X70.989 Y98.83 E46.95905
G1 X70.618 Y99.369 E46.98082
G1 X70.1 Y99.827 E47.00382
G1 X69.508 Y100.136 E47.02603
G1 F2700 E42.02603
G0 F6000 X69.648 Y100.405
G0 X68.918 Y100.879
G0 X68.918 Y134.117
G0 X70.513 Y140.47
;TYPE:SKIN
G1 F2700 E47.02603
G1 F300 X71.169 Y139.898 E47.05497
G1 X71.67 Y139.177 E47.08418
G1 X71.983 Y138.338 E47.11396
G1 X72.083 Y137.546 E47.14051
G1 X71.979 Y136.655 E47.17035
G1 X71.679 Y135.833 E47.19945
G1 X71.171 Y135.103 E47.22903
G1 X70.536 Y134.537 E47.25732
G1 X69.777 Y134.145 E47.28574
G1 X68.943 Y133.937 E47.31432
G1 X68.064 Y133.928 E47.34356
G1 X67.243 Y134.133 E47.37171
G1 X66.479 Y134.526 E47.40028
G1 X65.826 Y135.102 E47.42924
G1 X65.304 Y135.852 E47.45964
