;FLAVOR:Marlin
;TIME:7137
;Filament used: 4.26001m
;Layer height: 0.2
;MINX:81.5
;MINY:89
;MINZ:0.2
;MAXX:153.5
;MAXY:146
;MAXZ:30
;TARGET_MACHINE.NAME:Creality Ender-3
;Generated with Cura_SteamEngine 5.7.0
M140 S80
M105
M190 S80
M104 S200
M105
M109 S200
M82 ;absolute extrusion mode
; Ender 3 Custom Start G-code
G92 E0 ; Reset Extruder
G28 ; Home all axes
G1 Z2.0 F3000 ; Move Z Axis up little to prevent scratching of Heat Bed
G1 X0.1 Y20 Z0.3 F5000.0 ; Move to start position
G1 X0.1 Y200.0 Z0.3 F1500.0 E15 ; Draw the first line
G1 X0.4 Y200.0 Z0.3 F5000.0 ; Move to side a little
G1 X0.4 Y20 Z0.3 F1500.0 E30 ; Draw the second line
G92 E0 ; Reset Extruder
G1 Z2.0 F3000 ; Move Z Axis up little to prevent scratching of Heat Bed
G1 X5 Y20 Z0.3 F5000.0 ; Move over to prevent blob squish
G92 E0
G92 E0
G1 F2700 E-5
;LAYER_COUNT:150
;LAYER:0
M107
G0 F6000 X94.896 Y92.069 Z0.2
;TYPE:SKIRT
G1 F2700 E0
G1 F300 X95.601 Y91.45 E0.0312
G1 X96.414 Y90.853 E0.06475
G1 X97.248 Y90.35 E0.09715
G1 X98.123 Y89.923 E0.12953
G1 X99.032 Y89.575 E0.1619
G1 X99.967 Y89.307 E0.19425
G1 X100.853 Y89.134 E0.22428
G1 X102.205 Y89.013 E0.26942
G1 X102.812 Y89 E0.28962
G1 X131.804 Y89 E1.2539
G1 X132.685 Y89.013 E1.2832
G1 X133.656 Y89.072 E1.31556
G1 X134.62 Y89.218 E1.34799
G1 X135.567 Y89.449 E1.38041
G1 X136.423 Y89.737 E1.41044
G1 X137.379 Y90.156 E1.44516
G1 X138.232 Y90.627 E1.47757
G1 X139.039 Y91.172 E1.50996
G1 X139.796 Y91.786 E1.54238
G1 X140.494 Y92.464 E1.57474
G1 X141.13 Y93.201 E1.60712
G1 X141.699 Y93.991 E1.6395
G1 X142.162 Y94.767 E1.66956
G1 X142.614 Y95.708 E1.70428
G1 X142.955 Y96.62 E1.73666
G1 X143.212 Y97.547 E1.76866
G1 X143.332 Y98.143 E1.78888
G1 X143.454 Y98.852 E1.81281
G1 X143.925 Y101.37 E1.89801
G1 X144.471 Y103.892 E1.98383
G1 X145.058 Y106.266 E2.06517
G1 X145.744 Y108.752 E2.15095
G1 X146.472 Y111.119 E2.23331
G1 X147.281 Y113.509 E2.31723
G1 X148.153 Y115.866 E2.40082
G1 X149.1 Y118.216 E2.48509
G1 X150.114 Y120.541 E2.56945
G1 X151.168 Y122.782 E2.65182
G1 X152.324 Y125.074 E2.7372
G1 X152.721 Y125.964 E2.76961
G1 X153.037 Y126.884 E2.80197
G1 X153.271 Y127.829 E2.83435
G1 X153.421 Y128.787 E2.8666
G1 X153.481 Y129.608 E2.89398
G1 X153.5 Y130.33 E2.918
G1 X153.499 Y134.4 E3.05337
G1 X153.488 Y135.163 E3.07875
G1 X153.431 Y136.136 E3.11117
G1 X153.286 Y137.099 E3.14356
G1 X153.057 Y138.045 E3.17593
G1 X152.746 Y138.969 E3.20836
G1 X152.354 Y139.86 E3.24073
G1 X151.886 Y140.712 E3.27307
G1 X151.364 Y141.493 E3.30431
G1 X150.731 Y142.278 E3.33785
G1 X150.106 Y142.929 E3.36787
G1 X149.317 Y143.617 E3.40268
G1 X148.557 Y144.167 E3.43389
G1 X147.69 Y144.684 E3.46746
G1 X146.812 Y145.106 E3.49986
G1 X145.901 Y145.448 E3.53223
G1 X144.962 Y145.709 E3.56464
G1 X143.996 Y145.887 E3.59731
G1 X142.845 Y145.985 E3.63573
G1 X142.17 Y146 E3.65819
G1 X93.064 Y145.999 E5.29146
G1 X92.331 Y145.988 E5.31584
G1 X91.359 Y145.931 E5.34823
G1 X90.396 Y145.785 E5.38062
G1 X89.45 Y145.556 E5.413
G1 X88.526 Y145.244 E5.44543
G1 X87.636 Y144.852 E5.47778
G1 X86.813 Y144.401 E5.50899
G1 X85.974 Y143.84 E5.54256
G1 X85.27 Y143.274 E5.5726
G1 X84.517 Y142.549 E5.60737
G1 X83.88 Y141.813 E5.63975
G1 X83.35 Y141.082 E5.66978
G1 X82.814 Y140.185 E5.70453
G1 X82.392 Y139.307 E5.73693
G1 X82.05 Y138.395 E5.76933
G1 X81.79 Y137.457 E5.8017
G1 X81.612 Y136.488 E5.83447
G1 X81.514 Y135.309 E5.87382
G1 X81.5 Y134.658 E5.89548
G1 X81.501 Y130.55 E6.03211
G1 X81.512 Y129.828 E6.05613
G1 X81.572 Y128.84 E6.08905
G1 X81.718 Y127.876 E6.12148
G1 X81.949 Y126.929 E6.1539
G1 X82.264 Y126.004 E6.1864
G1 X82.686 Y125.056 E6.22091
G1 X83.297 Y123.84 E6.26617
G1 X84.415 Y121.539 E6.35126
G1 X85.472 Y119.2 E6.43663
G1 X86.439 Y116.884 E6.52011
G1 X87.351 Y114.511 E6.60466
G1 X88.182 Y112.157 E6.68769
G1 X88.945 Y109.779 E6.77076
G1 X89.643 Y107.377 E6.85395
G1 X90.28 Y104.919 E6.93841
G1 X90.842 Y102.48 E7.02165
G1 X91.347 Y99.959 E7.10717
G1 X91.551 Y98.773 E7.14719
G1 X91.7 Y97.971 E7.17432
G1 X91.923 Y97.023 E7.20671
G1 X92.228 Y96.1 E7.23905
G1 X92.583 Y95.27 E7.26907
G1 X93.078 Y94.347 E7.30391
G1 X93.595 Y93.565 E7.33509
G1 X94.224 Y92.776 E7.36865
G1 X94.896 Y92.069 E7.40109
G0 F6000 X95.16 Y92.37
G1 F300 X95.865 Y91.751 E7.43229
G1 X96.621 Y91.195 E7.46351
G1 X97.424 Y90.709 E7.49473
G1 X98.267 Y90.296 E7.52595
G1 X99.142 Y89.959 E7.55713
G1 X100.044 Y89.7 E7.58835
G1 X100.93 Y89.527 E7.61837
G1 X102.214 Y89.413 E7.66125
G1 X102.821 Y89.4 E7.68144
G1 X131.798 Y89.4 E8.64522
G1 X132.661 Y89.412 E8.67392
G1 X133.597 Y89.468 E8.70511
G1 X134.526 Y89.607 E8.73635
G1 X135.439 Y89.828 E8.7676
G1 X136.295 Y90.116 E8.79764
G1 X137.186 Y90.506 E8.82999
G1 X138.009 Y90.959 E8.86123
G1 X138.788 Y91.483 E8.89246
G1 X139.518 Y92.073 E8.92368
G1 X140.192 Y92.726 E8.95489
G1 X140.806 Y93.435 E8.98608
G1 X141.355 Y94.196 E9.01729
G1 X141.818 Y94.972 E9.04735
G1 X142.24 Y95.849 E9.07972
G1 X142.57 Y96.727 E9.11092
G1 X142.82 Y97.626 E9.14195
G1 X142.938 Y98.211 E9.1618
G1 X143.061 Y98.926 E9.18593
G1 X143.534 Y101.455 E9.2715
G1 X144.08 Y103.977 E9.35733
G1 X144.672 Y106.372 E9.43939
G1 X145.358 Y108.858 E9.52516
G1 X146.093 Y111.247 E9.60829
G1 X146.906 Y113.648 E9.69261
G1 X147.782 Y116.016 E9.77658
G1 X148.733 Y118.376 E9.86121
G1 X149.747 Y120.701 E9.94557
G1 X150.811 Y122.962 E10.02869
G1 X151.959 Y125.238 E10.11347
G1 X152.343 Y126.094 E10.14467
G1 X152.649 Y126.981 E10.17588
G1 X152.876 Y127.891 E10.20708
G1 X153.022 Y128.816 E10.23822
G1 X153.081 Y129.619 E10.265
G1 X153.1 Y130.33 E10.28866
G1 X153.099 Y134.395 E10.42386
G1 X153.089 Y135.14 E10.44864
G1 X153.035 Y136.077 E10.47986
G1 X152.897 Y137.006 E10.5111
G1 X152.678 Y137.918 E10.54229
G1 X152.38 Y138.808 E10.57351
G1 X152.003 Y139.668 E10.60474
G1 X151.553 Y140.49 E10.63591
G1 X151.031 Y141.271 E10.66715
G1 X150.442 Y142.001 E10.69835
G1 X149.817 Y142.652 E10.72837
G1 X149.082 Y143.293 E10.7608
G1 X148.322 Y143.843 E10.79201
G1 X147.516 Y144.324 E10.82322
G1 X146.671 Y144.732 E10.85443
G1 X145.793 Y145.063 E10.88564
G1 X144.889 Y145.316 E10.91687
G1 X143.962 Y145.488 E10.94822
G1 X142.811 Y145.586 E10.98664
G1 X142.17 Y145.6 E11.00797
G1 X93.07 Y145.599 E12.64104
G1 X92.354 Y145.589 E12.66486
G1 X91.418 Y145.535 E12.69604
G1 X90.489 Y145.396 E12.72728
G1 X89.577 Y145.177 E12.75848
G1 X88.687 Y144.878 E12.78971
G1 X87.828 Y144.501 E12.82091
G1 X87.005 Y144.05 E12.85212
G1 X86.225 Y143.528 E12.88334
G1 X85.521 Y142.962 E12.91338
G1 X84.819 Y142.287 E12.94577
G1 X84.204 Y141.578 E12.97699
G1 X83.674 Y140.847 E13.00702
G1 X83.174 Y140.011 E13.03942
G1 X82.766 Y139.166 E13.07063
G1 X82.435 Y138.288 E13.10184
G1 X82.183 Y137.384 E13.13305
G1 X82.011 Y136.455 E13.16448
G1 X81.913 Y135.276 E13.20383
G1 X81.9 Y134.658 E13.22438
G1 X81.901 Y130.556 E13.36082
G1 X81.911 Y129.852 E13.38424
G1 X81.968 Y128.899 E13.41599
G1 X82.107 Y127.97 E13.44723
G1 X82.328 Y127.057 E13.47847
G1 X82.629 Y126.167 E13.50972
G1 X83.043 Y125.236 E13.54361
G1 X83.657 Y124.015 E13.58907
G1 X84.775 Y121.714 E13.67416
G1 X85.836 Y119.365 E13.75988
G1 X86.808 Y117.038 E13.84376
G1 X87.724 Y114.655 E13.92867
G1 X88.559 Y112.29 E14.01209
G1 X89.326 Y109.901 E14.09555
G1 X90.027 Y107.489 E14.17909
G1 X90.67 Y105.009 E14.2643
G1 X91.232 Y102.57 E14.34755
G1 X91.739 Y100.038 E14.43343
G1 X91.944 Y98.846 E14.47366
G1 X92.089 Y98.062 E14.50018
G1 X92.303 Y97.148 E14.5314
G1 X92.596 Y96.257 E14.5626
G1 X92.951 Y95.427 E14.59262
G1 X93.412 Y94.568 E14.62505
G1 X93.929 Y93.786 E14.65623
G1 X94.514 Y93.051 E14.68747
G1 X95.16 Y92.37 E14.71869
G0 F6000 X95.425 Y92.67
G1 F300 X96.102 Y92.073 E14.74871
G1 X96.829 Y91.537 E14.77875
G1 X97.601 Y91.068 E14.8088
G1 X98.411 Y90.669 E14.83883
G1 X99.253 Y90.343 E14.86886
G1 X100.121 Y90.093 E14.8989
G1 X101.007 Y89.92 E14.92893
G1 X102.223 Y89.813 E14.96953
G1 X102.83 Y89.8 E14.98972
G1 X131.793 Y89.8 E15.95304
G1 X132.638 Y89.811 E15.98114
G1 X133.539 Y89.864 E16.01116
G1 X134.433 Y89.996 E16.04122
G1 X135.311 Y90.207 E16.07125
G1 X136.167 Y90.495 E16.10129
G1 X136.994 Y90.857 E16.13132
G1 X137.786 Y91.291 E16.16136
G1 X138.537 Y91.794 E16.19142
G1 X139.24 Y92.361 E16.22146
G1 X139.89 Y92.988 E16.2515
G1 X140.482 Y93.67 E16.28153
G1 X141.011 Y94.401 E16.31155
G1 X141.474 Y95.177 E16.3416
G1 X141.866 Y95.99 E16.37162
G1 X142.185 Y96.835 E16.40166
G1 X142.428 Y97.705 E16.43171
G1 X142.544 Y98.279 E16.45118
G1 X142.668 Y99 E16.47552
G1 X143.143 Y101.54 E16.56146
G1 X143.689 Y104.062 E16.64729
G1 X144.286 Y106.479 E16.73009
G1 X144.973 Y108.965 E16.81588
G1 X145.714 Y111.375 E16.89974
G1 X146.531 Y113.787 E16.98444
G1 X147.411 Y116.166 E17.0688
G1 X148.366 Y118.536 E17.15379
G1 X149.38 Y120.861 E17.23815
G1 X150.454 Y123.142 E17.32201
G1 X151.594 Y125.402 E17.4062
G1 X151.965 Y126.225 E17.43622
G1 X152.261 Y127.078 E17.46625
G1 X152.481 Y127.954 E17.49629
G1 X152.623 Y128.846 E17.52634
G1 X152.681 Y129.63 E17.55248
G1 X152.7 Y130.33 E17.57577
G1 X152.699 Y134.39 E17.71081
G1 X152.69 Y135.117 E17.73499
G1 X152.639 Y136.019 E17.76504
G1 X152.508 Y136.913 E17.79509
G1 X152.299 Y137.791 E17.82511
G1 X152.013 Y138.648 E17.85516
G1 X151.652 Y139.476 E17.8852
G1 X151.22 Y140.268 E17.91521
G1 X150.719 Y141.02 E17.94526
G1 X150.153 Y141.724 E17.97531
G1 X149.528 Y142.375 E18.00532
G1 X148.847 Y142.969 E18.03538
G1 X148.116 Y143.5 E18.06543
G1 X147.342 Y143.964 E18.09544
G1 X146.529 Y144.358 E18.12549
G1 X145.685 Y144.678 E18.15551
G1 X144.815 Y144.923 E18.18558
G1 X143.928 Y145.089 E18.21559
G1 X142.777 Y145.187 E18.25401
G1 X142.17 Y145.2 E18.2742
G1 X93.075 Y145.199 E19.90711
G1 X92.377 Y145.19 E19.93033
G1 X91.476 Y145.139 E19.96034
G1 X90.582 Y145.007 E19.9904
G1 X89.704 Y144.798 E20.02042
G1 X88.847 Y144.511 E20.05048
G1 X88.02 Y144.15 E20.08049
G1 X87.227 Y143.717 E20.11054
G1 X86.476 Y143.216 E20.14057
G1 X85.772 Y142.65 E20.17061
G1 X85.121 Y142.024 E20.20065
G1 X84.528 Y141.343 E20.23069
G1 X83.998 Y140.612 E20.26072
G1 X83.534 Y139.837 E20.29076
G1 X83.14 Y139.024 E20.32081
G1 X82.82 Y138.18 E20.35083
G1 X82.576 Y137.31 E20.38088
G1 X82.41 Y136.422 E20.41093
G1 X82.313 Y135.267 E20.44948
G1 X82.3 Y134.658 E20.46974
G1 X82.301 Y130.562 E20.60597
G1 X82.311 Y129.858 E20.62939
G1 X82.364 Y128.957 E20.65941
G1 X82.496 Y128.063 E20.68947
G1 X82.707 Y127.185 E20.7195
G1 X82.995 Y126.329 E20.74954
G1 X83.4 Y125.416 E20.78276
G1 X84.017 Y124.19 E20.82841
G1 X85.135 Y121.889 E20.9135
G1 X86.201 Y119.53 E20.9996
G1 X87.177 Y117.192 E21.08386
G1 X88.097 Y114.799 E21.16913
G1 X88.936 Y112.423 E21.25294
G1 X89.707 Y110.023 E21.33678
G1 X90.411 Y107.601 E21.42067
G1 X91.06 Y105.099 E21.50664
G1 X91.622 Y102.66 E21.58989
G1 X92.131 Y100.117 E21.67615
G1 X92.337 Y98.919 E21.71658
G1 X92.479 Y98.152 E21.74252
G1 X92.683 Y97.272 E21.77257
G1 X92.964 Y96.414 E21.8026
G1 X93.319 Y95.584 E21.83262
G1 X93.746 Y94.788 E21.86267
G1 X94.243 Y94.034 E21.8927
G1 X94.804 Y93.326 E21.92275
G1 X95.425 Y92.67 E21.95279
G1 F2700 E16.95279
;MESH:BarMount0-Body.stl
G0 F6000 X107.092 Y104.338
G0 X127.86 Y125.48
;TYPE:WALL-INNER
G1 F2700 E21.95279
G1 F300 X127.579 Y125.6 E21.96295
G1 X107.421 Y125.6 E22.63341
G1 X107.14 Y125.48 E22.64358
G1 X107.019 Y125.36 E22.64924
G1 X106.932 Y125.195 E22.65545
G1 X106.9 Y125 E22.66202
G1 X106.9 Y105 E23.32722
G1 X106.984 Y104.692 E23.33784
G1 X107.192 Y104.484 E23.34762
G1 X107.5 Y104.4 E23.35824
G1 X127.612 Y104.4 E24.02717
G1 X127.808 Y104.484 E24.03426
G1 X128.016 Y104.691 E24.04402
G1 X128.1 Y105 E24.05467
G1 X128.1 Y125.074 E24.72234
G1 X127.981 Y125.36 E24.73264
G1 X127.86 Y125.48 E24.73831
G1 F2700 E19.73831
G0 F6000 X127.86 Y125.5
G0 X128.125 Y125.469
G0 X131.7 Y125.469
G0 X141.9 Y134.4
G1 F2700 E24.73831
G1 F300 X141.9 Y130.6 E24.8647
G1 X132.5 Y130.6 E25.17734
G1 X132.305 Y130.568 E25.18391
G1 X132.14 Y130.48 E25.19013
G1 X132.02 Y130.36 E25.19578
G1 X131.9 Y130.079 E25.20594
G1 X131.9 Y100.6 E26.18642
G1 X103.1 Y100.6 E27.14431
G1 X103.1 Y130.079 E28.12478
G1 X102.98 Y130.36 E28.13495
G1 X102.86 Y130.481 E28.14061
G1 X102.695 Y130.568 E28.14682
G1 X102.5 Y130.6 E28.15339
G1 X93.1 Y130.6 E28.46604
G1 X93.1 Y134.4 E28.59243
G1 X141.9 Y134.4 E30.21552
G0 F6000 X142.3 Y134.8
;TYPE:WALL-OUTER
G1 F300 X142.3 Y130.2 E30.36852
G1 X132.449 Y130.2 E30.69616
G1 X132.34 Y130.12 E30.70066
G1 X132.303 Y130.037 E30.70368
G1 X132.3 Y100.2 E31.69606
G1 X102.7 Y100.2 E32.68056
G1 X102.697 Y130.037 E33.67295
G1 X102.66 Y130.12 E33.67597
G1 X102.551 Y130.2 E33.68047
G1 X92.7 Y130.2 E34.00811
G1 X92.7 Y134.8 E34.16111
G1 X142.3 Y134.8 E35.81081
G1 F2700 E30.81081
G0 F6000 X142.03 Y134.53
G0 X141.728 Y130.772
G0 X132.072 Y130.428
G0 X131.7 Y125.5
G0 X128.281 Y125.093
G0 X127.537 Y125.197
G1 F2700 E35.81081
G1 F300 X107.463 Y125.197 E36.47848
G1 X107.38 Y125.16 E36.4815
G1 X107.3 Y125.051 E36.48599
G1 X107.3 Y104.957 E37.15432
G1 X107.358 Y104.858 E37.15814
G1 X107.457 Y104.8 E37.16196
G1 X127.539 Y104.8 E37.82989
G1 X127.7 Y104.961 E37.83746
G1 X127.698 Y125.035 E38.50512
G1 X127.661 Y125.12 E38.50821
G1 X127.537 Y125.197 E38.51306
G1 F2700 E33.51306
G0 F6000 X127.537 Y125.5
G0 X128.125 Y125.469
G0 X131.7 Y125.469
G0 X141.54 Y134.04
;TYPE:SKIN
G1 F2700 E38.51306
G1 F300 X93.46 Y134.04 E40.11221
G1 X93.46 Y130.96 E40.21465
G1 X102.535 Y130.958 E40.51649
G1 X102.78 Y130.913 E40.52477
G1 X103.05 Y130.781 E40.53477
G1 X103.273 Y130.577 E40.54482
G1 X103.457 Y130.129 E40.56093
G1 X103.461 Y100.961 E41.53106
G1 X131.54 Y100.96 E42.46497
G1 X131.543 Y130.125 E43.435
G1 X131.711 Y130.538 E43.44983
G1 X131.898 Y130.746 E43.45913
G1 X132.158 Y130.893 E43.46907
G1 X132.46 Y130.957 E43.47934
G1 X141.54 Y130.96 E43.78134
G1 X141.54 Y134.04 E43.88378
G1 F2700 E38.88378
G0 F6000 X141.8 Y134.04
G0 X141.728 Y130.772
G0 X132.072 Y130.428
G0 X132.069 Y126.007
G0 X131.7 Y125.702
G0 X128.125 Y125.469
G0 X127.629 Y125.957
G1 F2700 E43.88378
G1 F300 X128.075 Y125.771 E43.89985
G1 X128.289 Y125.535 E43.91045
G1 X128.458 Y125.123 E43.92526
G1 X128.459 Y104.973 E44.59545
G1 X128.431 Y104.761 E44.60256
G1 X128.322 Y104.494 E44.61215
G1 X128.034 Y104.206 E44.6257
G1 X127.786 Y104.081 E44.63494
G1 X127.519 Y104.041 E44.64392
G1 X107.319 Y104.041 E45.31577
G1 X106.989 Y104.179 E45.32767
G1 X106.706 Y104.462 E45.34098
G1 X106.581 Y104.71 E45.35022
G1 X106.541 Y104.977 E45.3592
G1 X106.542 Y125.033 E46.02626
G1 X106.603 Y125.338 E46.03661
G1 X106.75 Y125.598 E46.04654
G1 X106.961 Y125.789 E46.05601
G1 X107.371 Y125.957 E46.07075
G1 X127.629 Y125.957 E46.74453
G1 F2700 E41.74453
G0 F6000 X127.582 Y125.702
G0 X127.928 Y125.428
G0 X128.281 Y105.001
G0 X128.281 Y100.8
G0 X131.142 Y101.161
G1 F2700 E46.74453
G1 F300 X131.34 Y101.359 E46.75384
G0 F6000 X131.34 Y101.924
G1 F300 X130.576 Y101.161 E46.78976
G0 F6000 X130.011 Y101.161
G1 F300 X131.34 Y102.49 E46.85227
G0 F6000 X131.34 Y103.056
G1 F300 X129.445 Y101.161 E46.9414
G0 F6000 X128.879 Y101.161
G1 F300 X131.34 Y103.622 E47.05716
G0 F6000 X131.34 Y104.187
G1 F300 X128.314 Y101.161 E47.19949
G0 F6000 X127.748 Y101.161
G1 F300 X131.341 Y104.754 E47.3685
G0 F6000 X131.341 Y105.319
G1 F300 X127.182 Y101.161 E47.5641
G0 F6000 X126.617 Y101.161
G1 F300 X131.341 Y105.885 E47.7863
G0 F6000 X131.341 Y106.451
G1 F300 X126.051 Y101.161 E48.03513
G0 F6000 X125.485 Y101.161
G1 F300 X131.341 Y107.016 E48.31055
G0 F6000 X131.341 Y107.582
G1 F300 X128.65 Y104.891 E48.43713
G0 F6000 X128.657 Y105.464
G1 F300 X131.342 Y108.148 E48.5634
G0 F6000 X131.342 Y108.714
G1 F300 X128.657 Y106.029 E48.68969
G0 F6000 X128.657 Y106.595
G1 F300 X131.342 Y109.28 E48.81599
G0 F6000 X131.342 Y109.846
G1 F300 X128.657 Y107.161 E48.94228
G0 F6000 X128.657 Y107.726
G1 F300 X131.342 Y110.411 E49.06858
G0 F6000 X131.342 Y110.978
G1 F300 X128.657 Y108.292 E49.19489
G0 F6000 X128.657 Y108.858
G1 F300 X131.342 Y111.543 E49.32119
G0 F6000 X131.342 Y112.109
G1 F300 X128.657 Y109.423 E49.44751
G0 F6000 X128.657 Y109.989
G1 F300 X131.342 Y112.675 E49.57382
G0 F6000 X131.342 Y113.24
G1 F300 X128.656 Y110.554 E49.70017
G0 F6000 X128.656 Y111.12
G1 F300 X131.342 Y113.806 E49.82651
G0 F6000 X131.343 Y114.372
G1 F300 X128.656 Y111.685 E49.9529
G0 F6000 X128.656 Y112.251
G1 F300 X131.343 Y114.938 E50.07928
