;FLAVOR:Marlin
;TIME:17323
;Filament used: 9.81011m
;Layer height: 0.2
;MINX:56.5
;MINY:56.5
;MINZ:0.2
;MAXX:178.5
;MAXY:178.5
;MAXZ:5
;TARGET_MACHINE.NAME:Creality Ender-3
;Generated with Cura_SteamEngine 5.7.0
M140 S80
M105
M190 S80
M104 S200
M105
M109 S200
M82 ;absolute extrusion mode
; Ender 3 Custom Start G-code
G92 E0 ; Reset Extruder
G28 ; Home all axes
G1 Z2.0 F3000 ; Move Z Axis up little to prevent scratching of Heat Bed
G1 X0.1 Y20 Z0.3 F5000.0 ; Move to start position
G1 X0.1 Y200.0 Z0.3 F1500.0 E15 ; Draw the first line
G1 X0.4 Y200.0 Z0.3 F5000.0 ; Move to side a little
G1 X0.4 Y20 Z0.3 F1500.0 E30 ; Draw the second line
G92 E0 ; Reset Extruder
G1 Z2.0 F3000 ; Move Z Axis up little to prevent scratching of Heat Bed
G1 X5 Y20 Z0.3 F5000.0 ; Move over to prevent blob squish
G92 E0
G92 E0
G1 F2700 E-5
;LAYER_COUNT:25
;LAYER:0
M107
G0 F6000 X62.383 Y62.935 Z0.2
;TYPE:SKIRT
G1 F2700 E0
G1 F300 X63.037 Y62.286 E0.03064
G1 X63.386 Y61.961 E0.04651
G1 X63.799 Y61.596 E0.06484
G1 X64.229 Y61.236 E0.08349
G1 X64.636 Y60.911 E0.10081
G1 X65.442 Y60.318 E0.1341
G1 X66.288 Y59.752 E0.16795
G1 X66.651 Y59.527 E0.18215
G1 X67.155 Y59.235 E0.20153
G1 X68.116 Y58.723 E0.23774
G1 X68.552 Y58.512 E0.25385
G1 X69.508 Y58.09 E0.28861
G1 X70.007 Y57.893 E0.30645
G1 X70.499 Y57.712 E0.32389
G1 X71.478 Y57.392 E0.35815
G1 X72.422 Y57.133 E0.39071
G1 X72.967 Y57.006 E0.40932
G1 X73.949 Y56.812 E0.44261
G1 X75 Y56.657 E0.47795
G1 X75.488 Y56.604 E0.49427
G1 X76.042 Y56.559 E0.51276
G1 X77.065 Y56.512 E0.54682
G1 X78.067 Y56.5 E0.58015
G1 X156.896 Y56.5 E3.20201
G1 X158.177 Y56.521 E3.24462
G1 X158.884 Y56.553 E3.26816
G1 X159.765 Y56.63 E3.29758
G1 X160.525 Y56.729 E3.32307
G1 X161.126 Y56.824 E3.34331
G1 X161.637 Y56.92 E3.3606
G1 X162.191 Y57.039 E3.37945
G1 X163.169 Y57.289 E3.41302
G1 X163.592 Y57.413 E3.42768
G1 X164.14 Y57.591 E3.44684
G1 X164.797 Y57.823 E3.47002
G1 X165.552 Y58.114 E3.49693
G1 X166.052 Y58.329 E3.51503
G1 X166.531 Y58.55 E3.53258
G1 X167.428 Y59.006 E3.56605
G1 X168.131 Y59.403 E3.5929
G1 X168.927 Y59.895 E3.62402
G1 X169.628 Y60.376 E3.6523
G1 X170.512 Y61.036 E3.68899
G1 X171.208 Y61.604 E3.71887
G1 X171.725 Y62.063 E3.74187
G1 X172.232 Y62.542 E3.76507
G1 X173.013 Y63.359 E3.80266
G1 X173.435 Y63.835 E3.82381
G1 X174.087 Y64.635 E3.85814
G1 X174.678 Y65.435 E3.89122
G1 X174.966 Y65.854 E3.90813
G1 X175.276 Y66.334 E3.92714
G1 X175.803 Y67.222 E3.96148
G1 X176.262 Y68.086 E3.99402
G1 X176.474 Y68.52 E4.01009
G1 X176.708 Y69.035 E4.0289
G1 X177.107 Y70.007 E4.06385
G1 X177.288 Y70.499 E4.08128
G1 X177.608 Y71.478 E4.11554
G1 X177.87 Y72.436 E4.14857
G1 X177.994 Y72.958 E4.16642
G1 X178.096 Y73.453 E4.18323
G1 X178.224 Y74.197 E4.20834
G1 X178.36 Y75.198 E4.24194
G1 X178.44 Y76.024 E4.26954
G1 X178.488 Y77.065 E4.3042
G1 X178.5 Y78.077 E4.33786
G1 X178.499 Y157.038 E6.96411
G1 X178.484 Y158.065 E6.99828
G1 X178.463 Y158.588 E7.01569
G1 X178.427 Y159.144 E7.03422
G1 X178.325 Y160.141 E7.06755
G1 X178.182 Y161.091 E7.0995
G1 X178.082 Y161.624 E7.11754
G1 X177.963 Y162.181 E7.13648
G1 X177.719 Y163.141 E7.16943
G1 X177.418 Y164.123 E7.20359
G1 X177.241 Y164.634 E7.22158
G1 X176.881 Y165.561 E7.25465
G1 X176.679 Y166.032 E7.2717
G1 X176.454 Y166.52 E7.28957
G1 X176.003 Y167.413 E7.32285
G1 X175.744 Y167.88 E7.34061
G1 X175.222 Y168.75 E7.37435
G1 X174.955 Y169.161 E7.39065
G1 X174.636 Y169.624 E7.40935
G1 X174.03 Y170.439 E7.44313
G1 X173.721 Y170.825 E7.45958
G1 X173.367 Y171.244 E7.47782
G1 X172.994 Y171.662 E7.49646
G1 X172.617 Y172.065 E7.51481
G1 X171.942 Y172.734 E7.54642
G1 X171.595 Y173.055 E7.56214
G1 X171.177 Y173.422 E7.58064
G1 X170.738 Y173.789 E7.59967
G1 X169.981 Y174.377 E7.63156
G1 X169.555 Y174.685 E7.64904
G1 X169.134 Y174.973 E7.666
G1 X168.675 Y175.269 E7.68417
G1 X167.778 Y175.803 E7.71889
G1 X166.895 Y176.272 E7.75215
G1 X166.46 Y176.483 E7.76823
G1 X165.983 Y176.7 E7.78566
G1 X165.492 Y176.91 E7.80342
G1 X164.993 Y177.107 E7.82126
G1 X164.501 Y177.288 E7.8387
G1 X163.522 Y177.608 E7.87295
G1 X162.578 Y177.867 E7.90551
G1 X162.033 Y177.994 E7.92412
G1 X161.045 Y178.189 E7.95762
G1 X160.525 Y178.271 E7.97513
G1 X159.508 Y178.395 E8.0092
G1 X158.941 Y178.442 E8.02813
G1 X157.935 Y178.488 E8.06162
G1 X156.923 Y178.5 E8.09528
G1 X77.954 Y178.499 E10.7218
G1 X77.139 Y178.489 E10.74891
G1 X76.262 Y178.456 E10.7781
G1 X75.582 Y178.405 E10.80078
G1 X74.873 Y178.326 E10.82451
G1 X73.89 Y178.178 E10.85757
G1 X73.382 Y178.083 E10.87476
G1 X72.819 Y177.963 E10.89391
G1 X71.859 Y177.719 E10.92685
G1 X70.877 Y177.418 E10.96101
G1 X70.366 Y177.241 E10.979
G1 X69.439 Y176.881 E11.01208
G1 X68.968 Y176.679 E11.02912
G1 X68.483 Y176.456 E11.04688
G1 X67.563 Y175.989 E11.08119
G1 X67.073 Y175.716 E11.09985
G1 X66.456 Y175.35 E11.12371
G1 X65.743 Y174.889 E11.15195
G1 X65.07 Y174.413 E11.17937
G1 X64.555 Y174.024 E11.20083
G1 X64.161 Y173.707 E11.21765
G1 X63.343 Y172.999 E11.25363
G1 X62.94 Y172.623 E11.27197
G1 X62.6 Y172.286 E11.28789
G1 X61.949 Y171.601 E11.31932
G1 X61.588 Y171.192 E11.33746
G1 X61.24 Y170.775 E11.35553
G1 X60.902 Y170.35 E11.37359
G1 X60.316 Y169.556 E11.40641
G1 X60.031 Y169.14 E11.42318
G1 X59.725 Y168.667 E11.44192
G1 X59.197 Y167.778 E11.47631
G1 X58.728 Y166.895 E11.50956
G1 X58.513 Y166.45 E11.526
G1 X58.092 Y165.492 E11.56081
G1 X57.89 Y164.986 E11.57893
G1 X57.71 Y164.496 E11.59629
G1 X57.392 Y163.522 E11.63037
G1 X57.133 Y162.578 E11.66293
G1 X57.006 Y162.033 E11.68154
G1 X56.813 Y161.056 E11.71466
G1 X56.727 Y160.522 E11.73265
G1 X56.656 Y159.974 E11.75103
G1 X56.559 Y158.959 E11.78494
G1 X56.512 Y157.931 E11.81917
G1 X56.5 Y156.902 E11.8534
G1 X56.501 Y77.944 E14.47955
G1 X56.522 Y76.782 E14.51821
G1 X56.573 Y75.854 E14.54912
G1 X56.672 Y74.887 E14.58145
G1 X56.82 Y73.905 E14.61448
G1 X56.916 Y73.39 E14.6319
G1 X57.036 Y72.824 E14.65115
G1 X57.288 Y71.836 E14.68506
G1 X57.563 Y70.934 E14.71642
G1 X57.886 Y70.029 E14.74838
G1 X58.103 Y69.482 E14.76796
G1 X58.319 Y68.971 E14.78641
G1 X58.525 Y68.52 E14.8029
G1 X58.781 Y68.002 E14.82212
G1 X59.268 Y67.099 E14.85624
G1 X59.528 Y66.655 E14.87335
G1 X59.923 Y66.034 E14.89783
G1 X60.523 Y65.164 E14.93298
G1 X60.992 Y64.537 E14.95902
G1 X61.634 Y63.759 E14.99257
G1 X62.001 Y63.344 E15.011
G1 X62.383 Y62.935 E15.02961
G0 F6000 X62.665 Y63.219
G1 F300 X63.309 Y62.579 E15.05981
G1 X63.651 Y62.261 E15.07534
G1 X64.056 Y61.903 E15.09332
G1 X64.479 Y61.549 E15.11167
G1 X64.886 Y61.224 E15.12899
G1 X65.665 Y60.65 E15.16118
G1 X66.498 Y60.092 E15.19452
G1 X66.852 Y59.873 E15.20837
G1 X67.343 Y59.588 E15.22725
G1 X68.29 Y59.083 E15.26295
G1 X68.713 Y58.878 E15.27858
G1 X69.656 Y58.462 E15.31286
G1 X70.145 Y58.268 E15.33036
G1 X70.623 Y58.092 E15.3473
G1 X71.584 Y57.778 E15.38093
G1 X72.528 Y57.519 E15.41348
G1 X73.044 Y57.398 E15.43111
G1 X74.007 Y57.208 E15.46376
G1 X75.043 Y57.055 E15.49859
G1 X75.52 Y57.003 E15.51455
G1 X76.061 Y56.959 E15.5326
G1 X77.07 Y56.912 E15.5662
G1 X78.072 Y56.9 E15.59953
G1 X156.889 Y56.9 E18.22099
G1 X158.159 Y56.921 E18.26324
G1 X158.849 Y56.952 E18.28621
G1 X159.714 Y57.027 E18.31509
G1 X160.463 Y57.124 E18.34021
G1 X161.052 Y57.217 E18.36004
G1 X161.553 Y57.311 E18.37699
G1 X162.092 Y57.427 E18.39533
G1 X163.057 Y57.673 E18.42846
G1 X163.468 Y57.793 E18.4427
G1 X164.007 Y57.968 E18.46154
G1 X164.653 Y58.196 E18.48433
G1 X165.394 Y58.482 E18.51075
G1 X165.884 Y58.692 E18.52848
G1 X166.35 Y58.907 E18.54555
G1 X167.247 Y59.363 E18.57902
G1 X167.921 Y59.743 E18.60475
G1 X168.701 Y60.225 E18.63525
G1 X169.389 Y60.696 E18.66298
G1 X170.259 Y61.346 E18.6991
G1 X170.942 Y61.903 E18.72841
G1 X171.45 Y62.354 E18.75101
G1 X171.957 Y62.833 E18.7742
G1 X172.714 Y63.625 E18.81064
G1 X173.125 Y64.088 E18.83124
G1 X173.765 Y64.873 E18.86492
G1 X174.348 Y65.662 E18.89755
G1 X174.63 Y66.072 E18.9141
G1 X174.932 Y66.538 E18.93257
G1 X175.45 Y67.41 E18.96631
G1 X175.903 Y68.262 E18.9984
G1 X176.11 Y68.685 E19.01406
G1 X176.338 Y69.187 E19.0324
G1 X176.732 Y70.145 E19.06685
G1 X176.908 Y70.623 E19.0838
G1 X177.222 Y71.584 E19.11742
G1 X177.481 Y72.528 E19.14998
G1 X177.602 Y73.039 E19.16745
G1 X177.702 Y73.521 E19.18382
G1 X177.828 Y74.251 E19.20846
G1 X177.962 Y75.237 E19.24155
G1 X178.04 Y76.043 E19.26849
G1 X178.088 Y77.07 E19.30268
G1 X178.1 Y78.077 E19.33618
G1 X178.099 Y157.032 E21.96223
G1 X178.084 Y158.049 E21.99606
G1 X178.064 Y158.562 E22.01314
G1 X178.029 Y159.103 E22.03117
G1 X177.929 Y160.081 E22.06386
G1 X177.786 Y161.031 E22.09582
G1 X177.691 Y161.54 E22.11304
G1 X177.575 Y162.082 E22.13147
G1 X177.331 Y163.042 E22.16442
G1 X177.04 Y163.992 E22.19747
G1 X176.868 Y164.489 E22.21496
G1 X176.513 Y165.404 E22.2476
G1 X176.316 Y165.865 E22.26428
G1 X176.097 Y166.34 E22.28167
G1 X175.653 Y167.219 E22.31443
G1 X175.401 Y167.674 E22.33173
G1 X174.887 Y168.532 E22.36499
G1 X174.626 Y168.934 E22.38093
G1 X174.315 Y169.385 E22.39915
G1 X173.717 Y170.189 E22.43248
G1 X173.415 Y170.567 E22.44857
G1 X173.068 Y170.978 E22.46646
G1 X172.702 Y171.389 E22.48477
G1 X172.336 Y171.781 E22.50261
G1 X171.67 Y172.44 E22.53377
G1 X171.323 Y172.761 E22.54949
G1 X170.921 Y173.115 E22.56731
G1 X170.492 Y173.473 E22.58589
G1 X169.746 Y174.053 E22.61732
G1 X169.329 Y174.355 E22.63444
G1 X168.917 Y174.637 E22.65105
G1 X168.47 Y174.925 E22.66874
G1 X167.59 Y175.45 E22.70282
G1 X166.72 Y175.912 E22.73558
G1 X166.294 Y176.119 E22.75133
G1 X165.826 Y176.332 E22.76844
G1 X165.344 Y176.538 E22.78587
G1 X164.855 Y176.732 E22.80337
G1 X164.377 Y176.908 E22.82031
G1 X163.416 Y177.222 E22.85393
G1 X162.472 Y177.481 E22.88649
G1 X161.956 Y177.602 E22.90412
G1 X160.983 Y177.794 E22.93711
G1 X160.477 Y177.874 E22.95415
G1 X159.475 Y177.996 E22.98772
G1 X158.922 Y178.042 E23.00617
G1 X157.93 Y178.088 E23.0392
G1 X156.923 Y178.1 E23.0727
G1 X77.959 Y178.099 E25.69905
G1 X77.154 Y178.089 E25.72583
G1 X76.291 Y178.057 E25.75455
G1 X75.627 Y178.008 E25.7767
G1 X74.933 Y177.93 E25.79993
G1 X73.95 Y177.782 E25.83299
G1 X73.466 Y177.692 E25.84936
G1 X72.918 Y177.575 E25.868
G1 X71.958 Y177.331 E25.90094
G1 X71.008 Y177.04 E25.93399
G1 X70.511 Y176.868 E25.95148
G1 X69.596 Y176.513 E25.98413
G1 X69.135 Y176.316 E26.0008
G1 X68.664 Y176.099 E26.01805
G1 X67.758 Y175.64 E26.05183
G1 X67.277 Y175.372 E26.07014
G1 X66.673 Y175.014 E26.0935
G1 X65.974 Y174.562 E26.12118
G1 X65.311 Y174.094 E26.14817
G1 X64.805 Y173.712 E26.16926
G1 X64.419 Y173.402 E26.18573
G1 X64.023 Y173.067 E26.20298
G1 X63.616 Y172.706 E26.22107
G1 X63.221 Y172.338 E26.23903
G1 X62.89 Y172.011 E26.2545
G1 X62.249 Y171.336 E26.28546
G1 X61.895 Y170.935 E26.30326
G1 X61.553 Y170.526 E26.32099
G1 X61.224 Y170.113 E26.33855
G1 X60.646 Y169.329 E26.37095
G1 X60.367 Y168.923 E26.38733
G1 X60.069 Y168.463 E26.40556
G1 X59.55 Y167.59 E26.43934
G1 X59.088 Y166.72 E26.4721
G1 X58.879 Y166.289 E26.48804
G1 X58.463 Y165.344 E26.52238
G1 X58.265 Y164.848 E26.54014
G1 X58.09 Y164.372 E26.55701
G1 X57.778 Y163.416 E26.59045
G1 X57.519 Y162.472 E26.62301
G1 X57.398 Y161.956 E26.64064
G1 X57.208 Y160.993 E26.67329
G1 X57.124 Y160.47 E26.69091
G1 X57.054 Y159.936 E26.70882
G1 X56.959 Y158.94 E26.7421
G1 X56.912 Y157.926 E26.77586
G1 X56.9 Y156.902 E26.80992
G1 X56.901 Y77.951 E29.43584
G1 X56.921 Y76.804 E29.47399
G1 X56.971 Y75.895 E29.50427
G1 X57.068 Y74.946 E29.536
G1 X57.213 Y73.978 E29.56856
G1 X57.307 Y73.473 E29.58564
G1 X57.424 Y72.923 E29.60434
G1 X57.671 Y71.952 E29.63767
G1 X57.94 Y71.068 E29.6684
G1 X58.258 Y70.176 E29.6999
G1 X58.471 Y69.638 E29.71914
G1 X58.683 Y69.137 E29.73724
G1 X58.884 Y68.697 E29.75333
G1 X59.133 Y68.192 E29.77205
G1 X59.613 Y67.301 E29.80572
G1 X59.866 Y66.87 E29.82234
G1 X60.261 Y66.249 E29.84682
G1 X60.844 Y65.403 E29.88099
G1 X61.301 Y64.791 E29.90639
G1 X61.933 Y64.024 E29.93945
G1 X62.294 Y63.617 E29.95754
G1 X62.665 Y63.219 E29.97564
G0 F6000 X62.947 Y63.503
G1 F300 X63.582 Y62.872 E30.00541
G1 X63.916 Y62.561 E30.02059
G1 X64.313 Y62.21 E30.03822
G1 X64.728 Y61.862 E30.05623
G1 X65.124 Y61.546 E30.07308
G1 X65.888 Y60.982 E30.10467
G1 X66.709 Y60.432 E30.13753
G1 X67.053 Y60.219 E30.15099
G1 X67.531 Y59.941 E30.16938
G1 X68.465 Y59.443 E30.20459
G1 X68.874 Y59.244 E30.21972
G1 X69.804 Y58.834 E30.25352
G1 X70.283 Y58.643 E30.27067
G1 X70.747 Y58.472 E30.28712
G1 X71.69 Y58.164 E30.32011
G1 X72.62 Y57.908 E30.3522
G1 X73.121 Y57.79 E30.36932
G1 X74.07 Y57.603 E30.40149
G1 X74.583 Y57.521 E30.41877
G1 X75.086 Y57.453 E30.43565
G1 X75.553 Y57.402 E30.45127
G1 X76.08 Y57.359 E30.46886
G1 X77.075 Y57.312 E30.50199
G1 X78.077 Y57.3 E30.53532
G1 X156.882 Y57.3 E33.15638
G1 X158.141 Y57.321 E33.19826
G1 X158.815 Y57.351 E33.2207
G1 X159.663 Y57.424 E33.24901
G1 X160.401 Y57.519 E33.27376
G1 X160.978 Y57.61 E33.29319
G1 X161.469 Y57.702 E33.3098
G1 X161.993 Y57.815 E33.32763
G1 X162.945 Y58.057 E33.3603
G1 X163.345 Y58.174 E33.37417
G1 X163.874 Y58.345 E33.39266
G1 X164.509 Y58.569 E33.41505
G1 X165.236 Y58.85 E33.44098
G1 X165.726 Y59.06 E33.45871
G1 X166.173 Y59.266 E33.47508
G1 X166.641 Y59.497 E33.49244
G1 X167.051 Y59.712 E33.50783
G1 X167.711 Y60.083 E33.53302
G1 X168.475 Y60.555 E33.56289
G1 X169.15 Y61.017 E33.59009
G1 X170.006 Y61.656 E33.62562
G1 X170.676 Y62.202 E33.65437
G1 X171.175 Y62.645 E33.67656
G1 X171.682 Y63.124 E33.69976
G1 X172.415 Y63.891 E33.73505
G1 X172.815 Y64.341 E33.75507
G1 X173.443 Y65.111 E33.78812
G1 X174.018 Y65.888 E33.82027
G1 X174.294 Y66.29 E33.83649
G1 X174.588 Y66.743 E33.85445
G1 X175.097 Y67.598 E33.88754
G1 X175.544 Y68.438 E33.91919
G1 X175.746 Y68.851 E33.93448
G1 X175.968 Y69.339 E33.95231
G1 X176.357 Y70.283 E33.98627
G1 X176.528 Y70.747 E34.00272
G1 X176.836 Y71.69 E34.03572
G1 X177.092 Y72.62 E34.0678
G1 X177.21 Y73.121 E34.08492
G1 X177.308 Y73.589 E34.10082
G1 X177.432 Y74.305 E34.12499
G1 X177.564 Y75.275 E34.15755
G1 X177.64 Y76.062 E34.18385
G1 X177.688 Y77.075 E34.21758
G1 X177.7 Y78.077 E34.25091
G1 X177.699 Y157.026 E36.87676
G1 X177.684 Y158.034 E36.91029
G1 X177.665 Y158.536 E36.927
G1 X177.631 Y159.062 E36.94453
G1 X177.533 Y160.022 E36.97663
G1 X177.393 Y160.958 E37.0081
G1 X177.3 Y161.456 E37.02495
G1 X177.187 Y161.983 E37.04288
G1 X176.943 Y162.943 E37.07583
G1 X176.662 Y163.861 E37.10776
G1 X176.495 Y164.344 E37.12475
G1 X176.145 Y165.247 E37.15697
G1 X175.952 Y165.698 E37.17328
G1 X175.74 Y166.16 E37.19019
G1 X175.303 Y167.025 E37.22242
G1 X175.058 Y167.468 E37.23926
G1 X174.551 Y168.314 E37.27206
G1 X174.296 Y168.707 E37.28764
G1 X173.994 Y169.146 E37.30537
G1 X173.405 Y169.939 E37.33822
G1 X173.109 Y170.309 E37.35398
G1 X172.769 Y170.712 E37.37152
G1 X172.41 Y171.116 E37.38949
G1 X172.054 Y171.497 E37.40684
G1 X171.398 Y172.147 E37.43755
G1 X171.059 Y172.461 E37.45292
G1 X170.665 Y172.808 E37.47038
G1 X170.247 Y173.157 E37.4885
G1 X169.511 Y173.729 E37.5195
G1 X169.103 Y174.025 E37.53626
G1 X168.7 Y174.301 E37.55251
G1 X168.265 Y174.582 E37.56973
G1 X167.402 Y175.097 E37.60316
G1 X166.545 Y175.552 E37.63543
G1 X166.128 Y175.755 E37.65086
G1 X165.669 Y175.964 E37.66763
G1 X165.196 Y176.166 E37.68474
G1 X164.717 Y176.357 E37.70189
G1 X164.253 Y176.528 E37.71834
G1 X163.31 Y176.836 E37.75133
G1 X162.38 Y177.092 E37.78341
G1 X161.879 Y177.21 E37.80053
G1 X160.92 Y177.399 E37.83304
G1 X160.429 Y177.477 E37.84958
G1 X159.442 Y177.597 E37.88265
G1 X158.903 Y177.642 E37.90064
G1 X157.925 Y177.688 E37.9332
G1 X156.923 Y177.7 E37.96653
G1 X77.964 Y177.699 E40.59272
G1 X77.169 Y177.689 E40.61916
G1 X76.32 Y177.658 E40.64742
G1 X75.672 Y177.611 E40.66903
G1 X74.992 Y177.534 E40.69179
G1 X74.023 Y177.389 E40.72438
G1 X73.55 Y177.301 E40.74038
G1 X73.017 Y177.187 E40.75851
G1 X72.057 Y176.943 E40.79145
G1 X71.139 Y176.662 E40.82338
G1 X70.656 Y176.495 E40.84038
G1 X69.753 Y176.145 E40.87259
G1 X69.302 Y175.952 E40.88891
G1 X68.84 Y175.74 E40.90582
G1 X68.368 Y175.508 E40.92331
G1 X67.953 Y175.291 E40.93889
G1 X67.481 Y175.028 E40.95686
G1 X66.89 Y174.678 E40.9797
G1 X66.205 Y174.235 E41.00683
G1 X65.552 Y173.774 E41.03342
G1 X65.055 Y173.4 E41.05411
G1 X64.677 Y173.097 E41.07022
G1 X64.288 Y172.768 E41.08717
G1 X63.889 Y172.414 E41.10491
G1 X63.502 Y172.053 E41.12251
G1 X63.18 Y171.736 E41.13754
