;FLAVOR:Marlin
;TIME:1498
;Filament used: 0.696596m
;Layer height: 0.2
;MINX:91.5
;MINY:96.5
;MINZ:0.2
;MAXX:143.5
;MAXY:138.5
;MAXZ:5
;TARGET_MACHINE.NAME:Creality Ender-3
;Generated with Cura_SteamEngine 5.7.0
M140 S80
M105
M190 S80
M104 S200
M105
M109 S200
M82 ;absolute extrusion mode
; Ender 3 Custom Start G-code
G92 E0 ; Reset Extruder
G28 ; Home all axes
G1 Z2.0 F3000 ; Move Z Axis up little to prevent scratching of Heat Bed
G1 X0.1 Y20 Z0.3 F5000.0 ; Move to start position
G1 X0.1 Y200.0 Z0.3 F1500.0 E15 ; Draw the first line
G1 X0.4 Y200.0 Z0.3 F5000.0 ; Move to side a little
G1 X0.4 Y20 Z0.3 F1500.0 E30 ; Draw the second line
G92 E0 ; Reset Extruder
G1 Z2.0 F3000 ; Move Z Axis up little to prevent scratching of Heat Bed
G1 X5 Y20 Z0.3 F5000.0 ; Move over to prevent blob squish
G92 E0
G92 E0
G1 F2700 E-5
;LAYER_COUNT:25
;LAYER:0
M107
G0 F6000 X94.956 Y99.513 Z0.2
;TYPE:SKIRT
G1 F2700 E0
G1 F300 X95.692 Y98.876 E0.03237
G1 X96.424 Y98.346 E0.06243
G1 X97.321 Y97.811 E0.09717
G1 X98.199 Y97.39 E0.12956
G1 X99.112 Y97.048 E0.16198
G1 X100.049 Y96.789 E0.19432
G1 X101.016 Y96.611 E0.22702
G1 X102.155 Y96.515 E0.26504
G1 X102.812 Y96.5 E0.2869
G1 X131.804 Y96.5 E1.25117
G1 X132.684 Y96.513 E1.28045
G1 X133.656 Y96.572 E1.31283
G1 X134.619 Y96.718 E1.34523
G1 X135.566 Y96.949 E1.37765
G1 X136.454 Y97.249 E1.40882
G1 X137.346 Y97.639 E1.4412
G1 X138.229 Y98.126 E1.47474
G1 X138.98 Y98.628 E1.50479
G1 X139.795 Y99.286 E1.53963
G1 X140.493 Y99.964 E1.57199
G1 X141.129 Y100.701 E1.60437
G1 X141.699 Y101.491 E1.63677
G1 X142.161 Y102.267 E1.66681
G1 X142.615 Y103.209 E1.70159
G1 X142.944 Y104.087 E1.73277
G1 X143.213 Y105.059 E1.76632
G1 X143.39 Y106.025 E1.79898
G1 X143.485 Y107.155 E1.8367
G1 X143.5 Y107.83 E1.85916
G1 X143.499 Y126.9 E2.49343
G1 X143.488 Y127.663 E2.51881
G1 X143.431 Y128.636 E2.55122
G1 X143.286 Y129.599 E2.58361
G1 X143.057 Y130.545 E2.61599
G1 X142.746 Y131.469 E2.64841
G1 X142.354 Y132.36 E2.68079
G1 X141.886 Y133.212 E2.71312
G1 X141.364 Y133.993 E2.74437
G1 X140.731 Y134.778 E2.77791
G1 X140.106 Y135.429 E2.80792
G1 X139.317 Y136.117 E2.84274
G1 X138.557 Y136.667 E2.87394
G1 X137.69 Y137.184 E2.90752
G1 X136.812 Y137.606 E2.93992
G1 X135.901 Y137.948 E2.97228
G1 X134.962 Y138.209 E3.0047
G1 X133.996 Y138.387 E3.03737
G1 X132.845 Y138.485 E3.07579
G1 X132.17 Y138.5 E3.09824
G1 X103.064 Y138.499 E4.06631
G1 X102.331 Y138.488 E4.0907
G1 X101.359 Y138.431 E4.12308
G1 X100.396 Y138.285 E4.15548
G1 X99.45 Y138.056 E4.18785
G1 X98.526 Y137.744 E4.22029
G1 X97.636 Y137.352 E4.25263
G1 X96.813 Y136.901 E4.28384
G1 X95.974 Y136.34 E4.31741
G1 X95.27 Y135.774 E4.34746
G1 X94.517 Y135.049 E4.38222
G1 X93.88 Y134.313 E4.4146
G1 X93.35 Y133.582 E4.44463
G1 X92.814 Y132.685 E4.47939
G1 X92.392 Y131.807 E4.51179
G1 X92.05 Y130.895 E4.54418
G1 X91.79 Y129.957 E4.57656
G1 X91.612 Y128.988 E4.60932
G1 X91.514 Y127.809 E4.64867
G1 X91.5 Y127.158 E4.67033
G1 X91.501 Y108.025 E5.3067
G1 X91.512 Y107.325 E5.32998
G1 X91.57 Y106.352 E5.3624
G1 X91.716 Y105.389 E5.3948
G1 X91.946 Y104.443 E5.42718
G1 X92.259 Y103.52 E5.45959
G1 X92.651 Y102.63 E5.49194
G1 X93.121 Y101.777 E5.52433
G1 X93.664 Y100.969 E5.55671
G1 X94.231 Y100.265 E5.58678
G1 X94.956 Y99.513 E5.62152
G0 F6000 X95.218 Y99.815
G1 F300 X95.927 Y99.2 E5.65274
G1 X96.659 Y98.67 E5.68279
G1 X97.495 Y98.171 E5.71518
G1 X98.34 Y97.764 E5.74637
G1 X99.219 Y97.433 E5.77761
G1 X100.122 Y97.182 E5.80878
G1 X101.05 Y97.01 E5.84017
G1 X102.189 Y96.914 E5.87819
G1 X102.821 Y96.9 E5.89922
G1 X131.798 Y96.9 E6.863
G1 X132.66 Y96.912 E6.89167
G1 X133.597 Y96.968 E6.92289
G1 X134.525 Y97.107 E6.9541
G1 X135.438 Y97.328 E6.98534
G1 X136.294 Y97.616 E7.01538
G1 X137.186 Y98.006 E7.04776
G1 X138.007 Y98.459 E7.07895
G1 X138.758 Y98.961 E7.10899
G1 X139.517 Y99.573 E7.14142
G1 X140.191 Y100.226 E7.17263
G1 X140.805 Y100.935 E7.20383
G1 X141.355 Y101.696 E7.23506
G1 X141.817 Y102.472 E7.2651
G1 X142.24 Y103.349 E7.29748
G1 X142.569 Y104.227 E7.32867
G1 X142.82 Y105.132 E7.3599
G1 X142.991 Y106.059 E7.39126
G1 X143.086 Y107.189 E7.42897
G1 X143.1 Y107.83 E7.4503
G1 X143.099 Y126.895 E8.0844
G1 X143.089 Y127.64 E8.10918
G1 X143.035 Y128.577 E8.1404
G1 X142.897 Y129.506 E8.17164
G1 X142.678 Y130.418 E8.20283
G1 X142.38 Y131.308 E8.23405
G1 X142.003 Y132.168 E8.26528
G1 X141.553 Y132.99 E8.29645
G1 X141.031 Y133.771 E8.32769
G1 X140.442 Y134.501 E8.35889
G1 X139.817 Y135.152 E8.38891
G1 X139.082 Y135.793 E8.42134
G1 X138.322 Y136.343 E8.45255
G1 X137.516 Y136.824 E8.48376
G1 X136.671 Y137.232 E8.51497
G1 X135.793 Y137.563 E8.54618
G1 X134.889 Y137.816 E8.57741
G1 X133.962 Y137.988 E8.60876
G1 X132.811 Y138.086 E8.64718
G1 X132.17 Y138.1 E8.66851
G1 X103.07 Y138.099 E9.63638
G1 X102.354 Y138.089 E9.6602
G1 X101.418 Y138.035 E9.69138
G1 X100.489 Y137.896 E9.72262
G1 X99.577 Y137.677 E9.75382
G1 X98.687 Y137.378 E9.78504
G1 X97.828 Y137.001 E9.81625
G1 X97.005 Y136.55 E9.84746
G1 X96.225 Y136.028 E9.87868
G1 X95.521 Y135.462 E9.90872
G1 X94.819 Y134.787 E9.94111
G1 X94.204 Y134.078 E9.97233
G1 X93.674 Y133.347 E10.00236
G1 X93.174 Y132.511 E10.03476
G1 X92.766 Y131.666 E10.06597
G1 X92.435 Y130.788 E10.09718
G1 X92.183 Y129.884 E10.12839
G1 X92.011 Y128.955 E10.15981
G1 X91.913 Y127.776 E10.19916
G1 X91.9 Y127.158 E10.21972
G1 X91.901 Y108.031 E10.85589
G1 X91.911 Y107.348 E10.87861
G1 X91.966 Y106.411 E10.90983
G1 X92.105 Y105.483 E10.94104
G1 X92.325 Y104.571 E10.97224
G1 X92.625 Y103.681 E11.00348
G1 X93.002 Y102.822 E11.03468
G1 X93.453 Y102 E11.06586
G1 X93.976 Y101.22 E11.0971
G1 X94.543 Y100.516 E11.12716
G1 X95.218 Y99.815 E11.15953
G0 F6000 X95.481 Y100.117
G1 F300 X96.162 Y99.524 E11.18956
G1 X96.894 Y98.994 E11.21962
G1 X97.669 Y98.531 E11.24965
G1 X98.482 Y98.138 E11.27968
G1 X99.327 Y97.818 E11.30974
G1 X100.196 Y97.575 E11.33975
G1 X101.084 Y97.409 E11.36979
G1 X102.223 Y97.313 E11.40781
G1 X102.83 Y97.3 E11.428
G1 X131.793 Y97.3 E12.39132
G1 X132.637 Y97.311 E12.41939
G1 X133.539 Y97.364 E12.44944
G1 X134.432 Y97.496 E12.47947
G1 X135.31 Y97.707 E12.5095
G1 X136.166 Y97.995 E12.53954
G1 X136.993 Y98.357 E12.56957
G1 X137.785 Y98.792 E12.59962
G1 X138.536 Y99.294 E12.62967
G1 X139.239 Y99.861 E12.6597
G1 X139.889 Y100.488 E12.68974
G1 X140.481 Y101.17 E12.71978
G1 X141.011 Y101.901 E12.74981
G1 X141.473 Y102.677 E12.77985
G1 X141.866 Y103.49 E12.80988
G1 X142.184 Y104.335 E12.83991
G1 X142.427 Y105.205 E12.86996
G1 X142.592 Y106.093 E12.9
G1 X142.687 Y107.223 E12.93771
G1 X142.7 Y107.83 E12.95791
G1 X142.699 Y126.89 E13.59184
G1 X142.69 Y127.617 E13.61603
G1 X142.639 Y128.519 E13.64608
G1 X142.508 Y129.413 E13.67613
G1 X142.299 Y130.291 E13.70615
G1 X142.013 Y131.148 E13.7362
G1 X141.652 Y131.976 E13.76624
G1 X141.22 Y132.768 E13.79624
G1 X140.719 Y133.52 E13.8263
G1 X140.153 Y134.224 E13.85634
G1 X139.528 Y134.875 E13.88636
G1 X138.847 Y135.469 E13.91641
G1 X138.116 Y136 E13.94646
G1 X137.342 Y136.464 E13.97648
G1 X136.529 Y136.858 E14.00653
G1 X135.685 Y137.178 E14.03655
G1 X134.815 Y137.423 E14.06661
G1 X133.928 Y137.589 E14.09663
G1 X132.777 Y137.687 E14.13505
G1 X132.17 Y137.7 E14.15524
G1 X103.075 Y137.699 E15.12294
G1 X102.377 Y137.69 E15.14616
G1 X101.476 Y137.639 E15.17618
G1 X100.582 Y137.507 E15.20623
G1 X99.704 Y137.298 E15.23625
G1 X98.847 Y137.011 E15.26631
G1 X98.02 Y136.65 E15.29632
G1 X97.227 Y136.217 E15.32637
G1 X96.476 Y135.716 E15.3564
G1 X95.772 Y135.15 E15.38645
G1 X95.121 Y134.524 E15.41648
G1 X94.528 Y133.843 E15.44652
G1 X93.998 Y133.112 E15.47655
G1 X93.534 Y132.337 E15.50659
G1 X93.14 Y131.524 E15.53664
G1 X92.82 Y130.68 E15.56666
G1 X92.576 Y129.81 E15.59672
G1 X92.41 Y128.922 E15.62676
G1 X92.313 Y127.767 E15.66531
G1 X92.3 Y127.158 E15.68557
G1 X92.301 Y108.036 E16.32157
G1 X92.31 Y107.371 E16.34369
G1 X92.362 Y106.469 E16.37374
G1 X92.494 Y105.576 E16.40377
G1 X92.704 Y104.698 E16.43379
G1 X92.991 Y103.841 E16.46385
G1 X93.353 Y103.014 E16.49388
G1 X93.786 Y102.222 E16.5239
G1 X94.288 Y101.471 E16.55395
G1 X94.855 Y100.767 E16.58401
G1 X95.481 Y100.117 E16.61403
G1 F2700 E11.61403
;MESH:LimitSwitchMount.stl
G0 F6000 X107.642 Y114.997
G0 X110.56 Y120.704
;TYPE:WALL-INNER
G1 F2700 E16.61403
G1 F300 X109.807 Y120.746 E16.63911
G1 X109.06 Y120.614 E16.66434
G1 X108.374 Y120.314 E16.68924
G1 X107.767 Y119.87 E16.71426
G1 X107.278 Y119.287 E16.73957
G1 X106.938 Y118.607 E16.76485
G1 X106.768 Y117.873 E16.78991
G1 X106.768 Y117.119 E16.81499
G1 X106.939 Y116.389 E16.83993
G1 X107.28 Y115.71 E16.8652
G1 X107.766 Y115.132 E16.89031
G1 X108.368 Y114.681 E16.91533
G1 X109.061 Y114.381 E16.94045
G1 X109.817 Y114.248 E16.96598
G1 X110.56 Y114.292 E16.99074
G1 X111.287 Y114.508 E17.01596
G1 X111.943 Y114.892 E17.04124
G1 X112.489 Y115.407 E17.06621
G1 X112.901 Y116.032 E17.0911
G1 X113.164 Y116.748 E17.11647
G1 X113.252 Y117.489 E17.14129
G1 X113.166 Y118.223 E17.16587
G1 X112.902 Y118.963 E17.192
G1 X112.49 Y119.588 E17.2169
G1 X111.942 Y120.109 E17.24205
G1 X111.287 Y120.488 E17.26722
G1 X110.56 Y120.704 E17.29245
G1 F2700 E12.29245
G0 F6000 X111.359 Y120.655
G0 X123.57 Y122.971
G0 X125.277 Y124.288
G1 F2700 E17.29245
G1 F300 X124.863 Y124.186 E17.30663
G1 X124.466 Y123.981 E17.32149
G1 X124.151 Y123.697 E17.33559
G1 X123.9 Y123.338 E17.35016
G1 X123.747 Y122.929 E17.36469
G1 X123.7 Y122.495 E17.37921
G1 X123.748 Y122.065 E17.3936
G1 X123.906 Y121.649 E17.4084
G1 X124.157 Y121.293 E17.42289
G1 X124.464 Y121.022 E17.43651
G1 X124.862 Y120.815 E17.45143
G1 X125.278 Y120.712 E17.46568
G1 X125.718 Y120.712 E17.48032
G1 X126.135 Y120.815 E17.4946
G1 X126.524 Y121.011 E17.50909
G1 X126.851 Y121.3 E17.5236
G1 X127.095 Y121.659 E17.53804
G1 X127.254 Y122.066 E17.55258
G1 X127.296 Y122.5 E17.56708
G1 X127.252 Y122.936 E17.58165
G1 X127.104 Y123.312 E17.59509
G1 X126.855 Y123.692 E17.6102
G1 X126.53 Y123.982 E17.62469
G1 X126.13 Y124.188 E17.63965
G1 X125.715 Y124.288 E17.65385
G1 X125.277 Y124.288 E17.66842
G1 F2700 E12.66842
G0 F6000 X124.483 Y124.105
G0 X126.626 Y124.136
G0 X126.624 Y126.719
G0 X131.9 Y126.9
G1 F2700 E17.66842
G1 F300 X131.9 Y108.1 E18.29371
G1 X103.1 Y108.1 E19.2516
G1 X103.101 Y126.899 E19.87686
G1 X131.9 Y126.9 E20.83472
G1 F2700 E15.83472
G0 F6000 X131.7 Y114.284
G0 X127.255 Y113.424
G0 X125.278 Y114.284
G1 F2700 E20.83472
G1 F300 X124.862 Y114.187 E20.84893
G1 X124.464 Y113.974 E20.86394
G1 X124.156 Y113.702 E20.87761
G1 X123.911 Y113.348 E20.89193
G1 X123.748 Y112.931 E20.90682
G1 X123.7 Y112.505 E20.92108
G1 X123.747 Y112.067 E20.93573
G1 X123.9 Y111.658 E20.95025
G1 X124.151 Y111.299 E20.96482
G1 X124.466 Y111.015 E20.97893
G1 X124.865 Y110.809 E20.99386
G1 X125.285 Y110.708 E21.00823
G1 X125.719 Y110.708 E21.02267
G1 X126.133 Y110.81 E21.03685
G1 X126.526 Y111.013 E21.05156
G1 X126.855 Y111.304 E21.06617
G1 X127.104 Y111.685 E21.08131
G1 X127.253 Y112.065 E21.09488
G1 X127.296 Y112.5 E21.10942
G1 X127.252 Y112.935 E21.12396
G1 X127.095 Y113.338 E21.13835
G1 X126.85 Y113.696 E21.15278
G1 X126.524 Y113.985 E21.16727
G1 X126.135 Y114.181 E21.18175
G1 X125.721 Y114.284 E21.19594
G1 X125.278 Y114.284 E21.21068
G0 F6000 X125.327 Y113.887
;TYPE:WALL-OUTER
G1 F300 X125.004 Y113.807 E21.22174
G1 X124.696 Y113.648 E21.23327
G1 X124.457 Y113.433 E21.24397
G1 X124.261 Y113.154 E21.25531
G1 X124.146 Y112.852 E21.26605
G1 X124.101 Y112.475 E21.27868
G1 X124.148 Y112.138 E21.29
G1 X124.272 Y111.825 E21.3012
G1 X124.469 Y111.551 E21.31242
G1 X124.677 Y111.363 E21.32175
G1 X125.028 Y111.181 E21.3349
G1 X125.304 Y111.113 E21.34435
G1 X125.692 Y111.113 E21.35726
G1 X125.968 Y111.181 E21.36671
G1 X126.317 Y111.362 E21.37979
G1 X126.562 Y111.587 E21.39085
G1 X126.742 Y111.855 E21.40159
G1 X126.851 Y112.135 E21.41158
G1 X126.896 Y112.5 E21.42381
G1 X126.862 Y112.823 E21.43462
G1 X126.726 Y113.169 E21.44698
G1 X126.562 Y113.409 E21.45665
G1 X126.317 Y113.634 E21.46771
G1 X125.992 Y113.807 E21.47996
G1 X125.666 Y113.888 E21.49113
G1 X125.327 Y113.887 E21.50241
G1 F2700 E16.50241
G0 F6000 X125.255 Y114.181
G0 X125.311 Y114.463
G0 X125.322 Y120.511
G0 X125.304 Y123.883
G1 F2700 E21.50241
G1 F300 X125.028 Y123.815 E21.51186
G1 X124.677 Y123.633 E21.52501
G1 X124.469 Y123.445 E21.53434
G1 X124.248 Y123.126 E21.54724
G1 X124.137 Y122.813 E21.55829
G1 X124.101 Y122.525 E21.56794
G1 X124.14 Y122.164 E21.58002
G1 X124.254 Y121.856 E21.59094
G1 X124.447 Y121.574 E21.60231
G1 X124.696 Y121.348 E21.61349
G1 X125.004 Y121.189 E21.62502
G1 X125.334 Y121.108 E21.63632
G1 X125.669 Y121.109 E21.64747
G1 X125.992 Y121.189 E21.65853
G1 X126.317 Y121.362 E21.67078
G1 X126.562 Y121.587 E21.68184
G1 X126.747 Y121.867 E21.693
G1 X126.851 Y122.135 E21.70257
G1 X126.896 Y122.5 E21.7148
G1 X126.862 Y122.823 E21.7256
G1 X126.742 Y123.142 E21.73694
G1 X126.562 Y123.409 E21.74765
G1 X126.317 Y123.634 E21.75871
G1 X125.969 Y123.815 E21.77176
G1 X125.697 Y123.883 E21.78108
G1 X125.304 Y123.883 E21.79415
G1 F2700 E16.79415
G0 F6000 X125.233 Y124.175
G0 X126.987 Y123.816
G0 X126.985 Y126.719
G0 X132.3 Y127.3
G1 F2700 E21.79415
G1 F300 X132.3 Y107.7 E22.44605
G1 X102.7 Y107.7 E23.43055
G1 X102.701 Y127.299 E24.08242
G1 X132.3 Y127.3 E25.06688
G1 F2700 E20.06688
G0 F6000 X132.03 Y127.03
G0 X109.862 Y126.719
G0 X109.796 Y120.928
G0 X109.848 Y120.344
G1 F2700 E25.06688
G1 F300 X109.156 Y120.22 E25.09027
G1 X108.572 Y119.966 E25.11145
G1 X108.026 Y119.557 E25.13414
G1 X107.63 Y119.085 E25.15463
G1 X107.313 Y118.45 E25.17823
G1 X107.171 Y117.843 E25.19897
G1 X107.173 Y117.146 E25.22215
G1 X107.329 Y116.502 E25.24419
G1 X107.63 Y115.915 E25.26613
G1 X108.06 Y115.411 E25.28817
G1 X108.572 Y115.03 E25.30939
G1 X109.156 Y114.776 E25.33057
G1 X109.86 Y114.652 E25.35435
G1 X110.513 Y114.696 E25.37612
G1 X111.15 Y114.891 E25.39828
G1 X111.717 Y115.229 E25.42023
G1 X112.182 Y115.663 E25.44139
G1 X112.548 Y116.227 E25.46375
G1 X112.773 Y116.849 E25.48575
G1 X112.848 Y117.513 E25.50797
G1 X112.773 Y118.147 E25.52921
G1 X112.548 Y118.769 E25.55121
G1 X112.182 Y119.332 E25.57354
G1 X111.681 Y119.798 E25.5963
G1 X111.149 Y120.106 E25.61674
G1 X110.514 Y120.3 E25.63883
G1 X109.848 Y120.344 E25.66103
G1 F2700 E20.66103
G0 F6000 X109.864 Y120.645
G0 X110.536 Y120.546
G0 X111.225 Y120.339
G0 X111.846 Y119.981
G0 X112.143 Y119.701
G0 X113.338 Y118.3
G0 X124.797 Y114.35
G0 X125.23 Y114.639
;TYPE:SKIN
G1 F2700 E25.66103
G1 F300 X125.77 Y114.644 E25.67899
G1 X126.259 Y114.516 E25.6958
G1 X126.725 Y114.288 E25.71306
G1 X127.138 Y113.913 E25.73161
G1 X127.423 Y113.485 E25.74871
G1 X127.606 Y113.003 E25.76586
G1 X127.656 Y112.481 E25.7833
G1 X127.61 Y111.983 E25.79994
G1 X127.418 Y111.501 E25.81719
G1 X127.138 Y111.079 E25.83404
G1 X126.744 Y110.725 E25.85165
G1 X126.24 Y110.465 E25.87052
G1 X125.78 Y110.353 E25.88626
G1 X125.233 Y110.35 E25.90446
G1 X124.762 Y110.461 E25.92055
G1 X124.237 Y110.731 E25.94019
G1 X123.893 Y111.043 E25.95563
G1 X123.577 Y111.486 E25.97373
G1 X123.404 Y111.95 E25.9902
G1 X123.329 Y112.506 E26.00886
G1 X123.403 Y113.028 E26.0264
G1 X123.581 Y113.493 E26.04296
G1 X123.893 Y113.953 E26.06144
G1 X124.283 Y114.29 E26.07859
G1 X124.752 Y114.522 E26.09599
G1 X125.23 Y114.639 E26.11236
G1 F2700 E21.11236
G0 F6000 X125.266 Y114.383
G0 X126.199 Y114.35
G0 X131.7 Y114.35
G0 X131.54 Y126.54
G1 F2700 E26.11236
G1 F300 X103.46 Y126.536 E27.0463
G1 X103.461 Y108.461 E27.64748
G1 X131.54 Y108.46 E28.58139
G1 X131.54 Y126.54 E29.18274
G1 F2700 E24.18274
G0 F6000 X131.538 Y126.799
G0 X124.481 Y126.719
G0 X125.047 Y124.417
G0 X125.212 Y124.643
G1 F2700 E29.18274
G1 F300 X125.767 Y124.646 E29.20119
G1 X126.227 Y124.535 E29.21693
G1 X126.705 Y124.294 E29.23474
G1 X127.124 Y123.934 E29.25311
G1 X127.419 Y123.495 E29.2707
G1 X127.606 Y123.003 E29.28821
G1 X127.656 Y122.477 E29.30578
G1 X127.609 Y121.984 E29.32225
G1 X127.423 Y121.51 E29.33919
G1 X127.123 Y121.058 E29.35723
G1 X126.744 Y120.725 E29.37401
G1 X126.259 Y120.476 E29.39215
G1 X125.775 Y120.349 E29.40879
G1 X125.192 Y120.353 E29.42818
G1 X124.732 Y120.477 E29.44403
G1 X124.283 Y120.702 E29.46073
G1 X123.893 Y121.043 E29.47796
G1 X123.577 Y121.493 E29.49625
G1 X123.399 Y121.959 E29.51284
G1 X123.34 Y122.513 E29.53137
