;FLAVOR:Marlin
;TIME:1940
;Filament used: 0.982246m
;Layer height: 0.2
;MINX:99
;MINY:81.5
;MINZ:0.2
;MAXX:136
;MAXY:153.5
;MAXZ:6
;TARGET_MACHINE.NAME:Creality Ender-3
;Generated with Cura_SteamEngine 5.7.0
M140 S80
M105
M190 S80
M104 S200
M105
M109 S200
M82 ;absolute extrusion mode
; Ender 3 Custom Start G-code
G92 E0 ; Reset Extruder
G28 ; Home all axes
G1 Z2.0 F3000 ; Move Z Axis up little to prevent scratching of Heat Bed
G1 X0.1 Y20 Z0.3 F5000.0 ; Move to start position
G1 X0.1 Y200.0 Z0.3 F1500.0 E15 ; Draw the first line
G1 X0.4 Y200.0 Z0.3 F5000.0 ; Move to side a little
G1 X0.4 Y20 Z0.3 F1500.0 E30 ; Draw the second line
G92 E0 ; Reset Extruder
G1 Z2.0 F3000 ; Move Z Axis up little to prevent scratching of Heat Bed
G1 X5 Y20 Z0.3 F5000.0 ; Move over to prevent blob squish
G92 E0
G92 E0
G1 F2700 E-5
;LAYER_COUNT:30
;LAYER:0
M107
G0 F6000 X101.731 Y85.265 Z0.2
;TYPE:SKIRT
G1 F2700 E0
G1 F300 X102.456 Y84.513 E0.03474
G1 X103.192 Y83.876 E0.06712
G1 X103.924 Y83.346 E0.09718
G1 X104.821 Y82.811 E0.13191
G1 X105.699 Y82.39 E0.1643
G1 X106.612 Y82.048 E0.19673
G1 X107.549 Y81.789 E0.22906
G1 X108.516 Y81.611 E0.26176
G1 X109.655 Y81.515 E0.29978
G1 X110.312 Y81.5 E0.32164
G1 X124.304 Y81.5 E0.78701
G1 X125.184 Y81.513 E0.81629
G1 X126.156 Y81.572 E0.84867
G1 X127.119 Y81.718 E0.88107
G1 X128.066 Y81.949 E0.91349
G1 X128.954 Y82.249 E0.94467
G1 X129.846 Y82.639 E0.97705
G1 X130.729 Y83.126 E1.01058
G1 X131.48 Y83.628 E1.04063
G1 X132.295 Y84.286 E1.07547
G1 X132.993 Y84.964 E1.10783
G1 X133.629 Y85.701 E1.14021
G1 X134.199 Y86.491 E1.17261
G1 X134.661 Y87.267 E1.20265
G1 X135.115 Y88.209 E1.23743
G1 X135.444 Y89.087 E1.26862
G1 X135.713 Y90.059 E1.30216
G1 X135.89 Y91.025 E1.33482
G1 X135.985 Y92.155 E1.37254
G1 X136 Y92.83 E1.395
G1 X135.999 Y141.9 E3.02707
G1 X135.988 Y142.663 E3.05245
G1 X135.931 Y143.636 E3.08487
G1 X135.786 Y144.599 E3.11726
G1 X135.557 Y145.545 E3.14963
G1 X135.246 Y146.469 E3.18206
G1 X134.854 Y147.36 E3.21443
G1 X134.386 Y148.212 E3.24677
G1 X133.864 Y148.993 E3.27801
G1 X133.231 Y149.778 E3.31155
G1 X132.606 Y150.429 E3.34157
G1 X131.817 Y151.117 E3.37638
G1 X131.057 Y151.667 E3.40759
G1 X130.19 Y152.184 E3.44116
G1 X129.312 Y152.606 E3.47356
G1 X128.401 Y152.948 E3.50593
G1 X127.462 Y153.209 E3.53834
G1 X126.496 Y153.387 E3.57101
G1 X125.345 Y153.485 E3.60943
G1 X124.67 Y153.5 E3.63189
G1 X110.564 Y153.499 E4.10106
G1 X109.831 Y153.488 E4.12544
G1 X108.859 Y153.431 E4.15782
G1 X107.896 Y153.285 E4.19022
G1 X106.95 Y153.056 E4.22259
G1 X106.026 Y152.744 E4.25503
G1 X105.136 Y152.352 E4.28737
G1 X104.313 Y151.901 E4.31859
G1 X103.474 Y151.34 E4.35216
G1 X102.77 Y150.774 E4.3822
G1 X102.017 Y150.049 E4.41697
G1 X101.38 Y149.313 E4.44934
G1 X100.85 Y148.582 E4.47937
G1 X100.314 Y147.685 E4.51413
G1 X99.892 Y146.807 E4.54653
G1 X99.55 Y145.895 E4.57892
G1 X99.29 Y144.957 E4.6113
G1 X99.112 Y143.988 E4.64407
G1 X99.014 Y142.809 E4.68342
G1 X99 Y142.158 E4.70507
G1 X99.001 Y93.025 E6.33924
G1 X99.012 Y92.325 E6.36253
G1 X99.07 Y91.352 E6.39495
G1 X99.216 Y90.389 E6.42734
G1 X99.446 Y89.443 E6.45972
G1 X99.759 Y88.52 E6.49214
G1 X100.151 Y87.63 E6.52449
G1 X100.621 Y86.777 E6.55688
G1 X101.164 Y85.969 E6.58926
G1 X101.731 Y85.265 E6.61932
G0 F6000 X102.043 Y85.516
G1 F300 X102.718 Y84.815 E6.65169
G1 X103.427 Y84.2 E6.68291
G1 X104.159 Y83.67 E6.71296
G1 X104.995 Y83.171 E6.74535
G1 X105.84 Y82.764 E6.77654
G1 X106.719 Y82.433 E6.80778
G1 X107.622 Y82.182 E6.83895
G1 X108.55 Y82.01 E6.87034
G1 X109.689 Y81.914 E6.90836
G1 X110.321 Y81.9 E6.92939
G1 X124.298 Y81.9 E7.39426
G1 X125.16 Y81.912 E7.42294
G1 X126.097 Y81.968 E7.45416
G1 X127.025 Y82.107 E7.48537
G1 X127.938 Y82.328 E7.51661
G1 X128.794 Y82.616 E7.54665
G1 X129.686 Y83.006 E7.57903
G1 X130.507 Y83.459 E7.61022
G1 X131.258 Y83.961 E7.64026
G1 X132.017 Y84.573 E7.67269
G1 X132.691 Y85.226 E7.7039
G1 X133.305 Y85.935 E7.7351
G1 X133.855 Y86.696 E7.76633
G1 X134.317 Y87.472 E7.79637
G1 X134.74 Y88.349 E7.82875
G1 X135.069 Y89.227 E7.85994
G1 X135.32 Y90.132 E7.89117
G1 X135.491 Y91.059 E7.92253
G1 X135.586 Y92.189 E7.96024
G1 X135.6 Y92.83 E7.98157
G1 X135.599 Y141.895 E9.61348
G1 X135.589 Y142.64 E9.63826
G1 X135.535 Y143.577 E9.66947
G1 X135.397 Y144.506 E9.70071
G1 X135.178 Y145.418 E9.73191
G1 X134.88 Y146.308 E9.76312
G1 X134.503 Y147.168 E9.79435
G1 X134.053 Y147.99 E9.82552
G1 X133.531 Y148.771 E9.85677
G1 X132.942 Y149.501 E9.88796
G1 X132.317 Y150.152 E9.91798
G1 X131.582 Y150.793 E9.95042
G1 X130.822 Y151.343 E9.98162
G1 X130.016 Y151.824 E10.01284
G1 X129.171 Y152.232 E10.04405
G1 X128.293 Y152.563 E10.07526
G1 X127.389 Y152.816 E10.10648
G1 X126.462 Y152.988 E10.13784
G1 X125.311 Y153.086 E10.17626
G1 X124.67 Y153.1 E10.19758
G1 X110.57 Y153.099 E10.66655
G1 X109.854 Y153.089 E10.69037
G1 X108.918 Y153.035 E10.72155
G1 X107.989 Y152.896 E10.75279
G1 X107.077 Y152.677 E10.78399
G1 X106.187 Y152.378 E10.81522
G1 X105.328 Y152.001 E10.84642
G1 X104.505 Y151.55 E10.87763
G1 X103.725 Y151.028 E10.90885
G1 X103.021 Y150.462 E10.93889
G1 X102.319 Y149.787 E10.97128
G1 X101.704 Y149.078 E11.0025
G1 X101.174 Y148.347 E11.03253
G1 X100.674 Y147.511 E11.06493
G1 X100.266 Y146.666 E11.09614
G1 X99.935 Y145.788 E11.12735
G1 X99.683 Y144.884 E11.15856
G1 X99.511 Y143.955 E11.18999
G1 X99.413 Y142.776 E11.22933
G1 X99.4 Y142.158 E11.24989
G1 X99.401 Y93.031 E12.88386
G1 X99.411 Y92.348 E12.90658
G1 X99.466 Y91.411 E12.9378
G1 X99.605 Y90.483 E12.96901
G1 X99.825 Y89.571 E13.00021
G1 X100.125 Y88.681 E13.03145
G1 X100.502 Y87.822 E13.06265
G1 X100.953 Y87 E13.09384
G1 X101.476 Y86.22 E13.12507
G1 X102.043 Y85.516 E13.15514
G0 F6000 X102.355 Y85.767
G1 F300 X102.981 Y85.117 E13.18515
G1 X103.662 Y84.524 E13.21519
G1 X104.394 Y83.994 E13.24525
G1 X105.169 Y83.531 E13.27527
G1 X105.982 Y83.138 E13.30531
G1 X106.827 Y82.818 E13.33536
G1 X107.696 Y82.575 E13.36537
G1 X108.584 Y82.409 E13.39542
G1 X109.723 Y82.313 E13.43343
G1 X110.33 Y82.3 E13.45363
G1 X124.293 Y82.3 E13.91804
G1 X125.137 Y82.311 E13.94611
G1 X126.039 Y82.364 E13.97617
G1 X126.932 Y82.496 E14.00619
G1 X127.81 Y82.707 E14.03622
G1 X128.666 Y82.995 E14.06626
G1 X129.493 Y83.357 E14.09629
G1 X130.285 Y83.792 E14.12634
G1 X131.036 Y84.294 E14.15639
G1 X131.739 Y84.861 E14.18643
G1 X132.389 Y85.488 E14.21646
G1 X132.981 Y86.17 E14.2465
G1 X133.511 Y86.901 E14.27653
G1 X133.973 Y87.677 E14.30657
G1 X134.366 Y88.49 E14.3366
G1 X134.684 Y89.335 E14.36663
G1 X134.927 Y90.205 E14.39668
G1 X135.092 Y91.093 E14.42672
G1 X135.187 Y92.223 E14.46443
G1 X135.2 Y92.83 E14.48463
G1 X135.199 Y141.89 E16.11637
G1 X135.19 Y142.617 E16.14055
G1 X135.139 Y143.519 E16.1706
G1 X135.008 Y144.413 E16.20065
G1 X134.799 Y145.291 E16.23067
G1 X134.513 Y146.148 E16.26072
G1 X134.152 Y146.976 E16.29076
G1 X133.72 Y147.768 E16.32077
G1 X133.219 Y148.52 E16.35082
G1 X132.653 Y149.224 E16.38087
G1 X132.028 Y149.875 E16.41088
G1 X131.347 Y150.469 E16.44094
G1 X130.616 Y151 E16.47099
G1 X129.842 Y151.464 E16.501
G1 X129.029 Y151.858 E16.53105
G1 X128.185 Y152.178 E16.56107
G1 X127.315 Y152.423 E16.59114
G1 X126.428 Y152.589 E16.62115
G1 X125.277 Y152.687 E16.65957
G1 X124.67 Y152.7 E16.67976
G1 X110.575 Y152.699 E17.14857
G1 X109.877 Y152.69 E17.17178
G1 X108.976 Y152.639 E17.2018
G1 X108.082 Y152.507 E17.23186
G1 X107.204 Y152.298 E17.26187
G1 X106.347 Y152.011 E17.29193
G1 X105.52 Y151.65 E17.32195
G1 X104.727 Y151.217 E17.352
G1 X103.976 Y150.716 E17.38202
G1 X103.272 Y150.15 E17.41207
G1 X102.621 Y149.524 E17.44211
G1 X102.028 Y148.843 E17.47214
G1 X101.498 Y148.112 E17.50217
G1 X101.034 Y147.337 E17.53222
G1 X100.64 Y146.524 E17.56226
G1 X100.32 Y145.68 E17.59229
G1 X100.076 Y144.81 E17.62234
G1 X99.91 Y143.922 E17.65239
G1 X99.813 Y142.767 E17.69094
G1 X99.8 Y142.158 E17.7112
G1 X99.801 Y93.036 E19.345
G1 X99.81 Y92.371 E19.36712
G1 X99.862 Y91.469 E19.39717
G1 X99.994 Y90.576 E19.42719
G1 X100.204 Y89.698 E19.45722
G1 X100.491 Y88.841 E19.48728
G1 X100.853 Y88.014 E19.51731
G1 X101.286 Y87.222 E19.54733
G1 X101.788 Y86.471 E19.57737
G1 X102.355 Y85.767 E19.60744
G1 F2700 E14.60744
;MESH:BOB-Body.stl
G0 F6000 X109.335 Y92.92
G0 X124.4 Y141.9
;TYPE:WALL-INNER
G1 F2700 E19.60744
G1 F300 X124.4 Y93.1 E21.23053
G1 X110.6 Y93.1 E21.68952
G1 X110.6 Y141.9 E23.31262
G1 X124.4 Y141.9 E23.77161
G0 F6000 X124.8 Y142.3
;TYPE:WALL-OUTER
G1 F300 X124.8 Y92.7 E25.42131
G1 X110.2 Y92.7 E25.90691
G1 X110.2 Y142.3 E27.55661
G1 X124.8 Y142.3 E28.04221
G0 F6000 X124.53 Y142.03
G0 X124.3 Y141.54
G0 X124.04 Y141.54
;TYPE:SKIN
G1 F300 X110.96 Y141.54 E28.47725
G1 X110.96 Y93.46 E30.0764
G1 X124.04 Y93.46 E30.51144
G1 X124.04 Y141.54 E32.11059
G0 F6000 X124.3 Y141.54
G0 X111.358 Y141.8
G0 X111.358 Y141.339
G1 F300 X111.16 Y141.141 E32.1199
G0 F6000 X111.16 Y140.576
G1 F300 X111.924 Y141.339 E32.15581
G0 F6000 X112.489 Y141.339
G1 F300 X111.16 Y140.01 E32.21833
G0 F6000 X111.16 Y139.444
G1 F300 X113.055 Y141.339 E32.30746
G0 F6000 X113.621 Y141.339
G1 F300 X111.16 Y138.879 E32.4232
G0 F6000 X111.16 Y138.313
G1 F300 X114.186 Y141.339 E32.56553
G0 F6000 X114.752 Y141.339
G1 F300 X111.16 Y137.747 E32.73449
G0 F6000 X111.16 Y137.182
G1 F300 X115.318 Y141.339 E32.93004
G0 F6000 X115.883 Y141.339
G1 F300 X111.16 Y136.616 E33.1522
G0 F6000 X111.16 Y136.05
G1 F300 X116.449 Y141.339 E33.40098
G0 F6000 X117.015 Y141.339
G1 F300 X111.16 Y135.484 E33.67638
G0 F6000 X111.16 Y134.919
G1 F300 X117.581 Y141.339 E33.97838
G0 F6000 X118.146 Y141.339
G1 F300 X111.16 Y134.353 E34.30698
G0 F6000 X111.16 Y133.787
G1 F300 X118.712 Y141.339 E34.6622
G0 F6000 X119.278 Y141.339
G1 F300 X111.16 Y133.222 E35.04402
G0 F6000 X111.16 Y132.656
G1 F300 X119.843 Y141.339 E35.45244
G0 F6000 X120.409 Y141.339
G1 F300 X111.16 Y132.09 E35.88749
G0 F6000 X111.16 Y131.525
G1 F300 X120.975 Y141.339 E36.34913
G0 F6000 X121.54 Y141.339
G1 F300 X111.16 Y130.959 E36.83738
G0 F6000 X111.16 Y130.393
G1 F300 X122.106 Y141.339 E37.35224
G0 F6000 X122.672 Y141.339
G1 F300 X111.16 Y129.828 E37.89371
G0 F6000 X111.16 Y129.262
G1 F300 X123.237 Y141.339 E38.46177
G0 F6000 X123.803 Y141.339
G1 F300 X111.16 Y128.696 E39.05646
G0 F6000 X111.16 Y128.131
G1 F300 X123.841 Y140.811 E39.65291
G0 F6000 X123.841 Y140.245
G1 F300 X111.16 Y127.565 E40.24937
G0 F6000 X111.16 Y126.999
G1 F300 X123.841 Y139.68 E40.84584
G0 F6000 X123.841 Y139.114
G1 F300 X111.16 Y126.434 E41.44229
G0 F6000 X111.16 Y125.868
G1 F300 X123.841 Y138.548 E42.03874
G0 F6000 X123.841 Y137.983
G1 F300 X111.16 Y125.302 E42.63522
G0 F6000 X111.16 Y124.736
G1 F300 X123.841 Y137.417 E43.2317
G0 F6000 X123.841 Y136.851
G1 F300 X111.16 Y124.171 E43.82815
G0 F6000 X111.16 Y123.605
G1 F300 X123.841 Y136.286 E44.42462
G0 F6000 X123.841 Y135.72
G1 F300 X111.16 Y123.039 E45.0211
G0 F6000 X111.16 Y122.474
G1 F300 X123.841 Y135.154 E45.61755
G0 F6000 X123.841 Y134.589
G1 F300 X111.16 Y121.908 E46.21403
G0 F6000 X111.16 Y121.342
G1 F300 X123.841 Y134.023 E46.8105
G0 F6000 X123.841 Y133.457
G1 F300 X111.16 Y120.777 E47.40695
G0 F6000 X111.16 Y120.211
G1 F300 X123.841 Y132.892 E48.00343
G0 F6000 X123.841 Y132.326
G1 F300 X111.16 Y119.645 E48.5999
G0 F6000 X111.16 Y119.08
G1 F300 X123.841 Y131.76 E49.19635
G0 F6000 X123.841 Y131.194
G1 F300 X111.16 Y118.514 E49.79281
G0 F6000 X111.16 Y117.948
G1 F300 X123.841 Y130.629 E50.38928
G0 F6000 X123.841 Y130.063
G1 F300 X111.16 Y117.383 E50.98573
G0 F6000 X111.16 Y116.817
G1 F300 X123.841 Y129.497 E51.58219
G0 F6000 X123.841 Y128.932
G1 F300 X111.16 Y116.251 E52.17866
G0 F6000 X111.16 Y115.685
G1 F300 X123.841 Y128.366 E52.77514
G0 F6000 X123.841 Y127.8
G1 F300 X111.16 Y115.12 E53.37159
G0 F6000 X111.16 Y114.554
G1 F300 X123.841 Y127.235 E53.96806
G0 F6000 X123.841 Y126.669
G1 F300 X111.16 Y113.988 E54.56454
G0 F6000 X111.16 Y113.423
G1 F300 X123.841 Y126.103 E55.16099
G0 F6000 X123.841 Y125.538
G1 F300 X111.16 Y112.857 E55.75747
G0 F6000 X111.16 Y112.291
G1 F300 X123.841 Y124.972 E56.35394
G0 F6000 X123.841 Y124.406
G1 F300 X111.16 Y111.726 E56.95039
G0 F6000 X111.16 Y111.16
G1 F300 X123.841 Y123.841 E57.54687
G0 F6000 X123.841 Y123.275
G1 F300 X111.16 Y110.594 E58.14334
G0 F6000 X111.16 Y110.029
G1 F300 X123.841 Y122.709 E58.7398
G0 F6000 X123.841 Y122.144
G1 F300 X111.16 Y109.463 E59.33627
G0 F6000 X111.16 Y108.897
G1 F300 X123.841 Y121.578 E59.93275
G0 F6000 X123.841 Y121.012
G1 F300 X111.16 Y108.332 E60.5292
G0 F6000 X111.16 Y107.766
G1 F300 X123.841 Y120.446 E61.12565
G0 F6000 X123.841 Y119.881
G1 F300 X111.16 Y107.2 E61.72213
G0 F6000 X111.16 Y106.635
G1 F300 X123.841 Y119.315 E62.31858
G0 F6000 X123.841 Y118.749
G1 F300 X111.16 Y106.069 E62.91503
G0 F6000 X111.16 Y105.503
G1 F300 X123.841 Y118.184 E63.5115
G0 F6000 X123.841 Y117.618
G1 F300 X111.16 Y104.937 E64.10798
G0 F6000 X111.16 Y104.372
G1 F300 X123.841 Y117.052 E64.70443
G0 F6000 X123.841 Y116.487
G1 F300 X111.16 Y103.806 E65.30091
G0 F6000 X111.16 Y103.24
G1 F300 X123.841 Y115.921 E65.89738
G0 F6000 X123.841 Y115.355
G1 F300 X111.16 Y102.675 E66.49383
G0 F6000 X111.16 Y102.109
G1 F300 X123.841 Y114.79 E67.09031
G0 F6000 X123.841 Y114.224
G1 F300 X111.16 Y101.543 E67.68679
G0 F6000 X111.16 Y100.978
G1 F300 X123.841 Y113.658 E68.28324
G0 F6000 X123.841 Y113.093
G1 F300 X111.16 Y100.412 E68.87971
G0 F6000 X111.16 Y99.846
G1 F300 X123.841 Y112.527 E69.47619
G0 F6000 X123.841 Y111.961
G1 F300 X111.16 Y99.281 E70.07264
G0 F6000 X111.16 Y98.715
G1 F300 X123.841 Y111.395 E70.66909
G0 F6000 X123.841 Y110.83
G1 F300 X111.16 Y98.149 E71.26557
G0 F6000 X111.16 Y97.584
G1 F300 X123.841 Y110.264 E71.86202
G0 F6000 X123.841 Y109.698
G1 F300 X111.16 Y97.018 E72.45847
G0 F6000 X111.16 Y96.452
G1 F300 X123.841 Y109.133 E73.05495
G0 F6000 X123.841 Y108.567
G1 F300 X111.16 Y95.887 E73.6514
G0 F6000 X111.16 Y95.321
G1 F300 X123.841 Y108.001 E74.24785
G0 F6000 X123.841 Y107.436
G1 F300 X111.16 Y94.755 E74.84433
G0 F6000 X111.16 Y94.189
G1 F300 X123.841 Y106.87 E75.4408
G0 F6000 X123.841 Y106.304
G1 F300 X111.197 Y93.661 E76.03551
G0 F6000 X111.762 Y93.661
G1 F300 X123.841 Y105.739 E76.60365
G0 F6000 X123.841 Y105.173
G1 F300 X112.328 Y93.661 E77.14516
G0 F6000 X112.894 Y93.661
G1 F300 X123.841 Y104.607 E77.66005
G0 F6000 X123.841 Y104.042
G1 F300 X113.46 Y93.661 E78.14834
G0 F6000 X114.025 Y93.661
G1 F300 X123.841 Y103.476 E78.61003
G0 F6000 X123.841 Y102.91
G1 F300 X114.591 Y93.661 E79.0451
G0 F6000 X115.157 Y93.661
G1 F300 X123.841 Y102.345 E79.45357
G0 F6000 X123.841 Y101.779
G1 F300 X115.722 Y93.661 E79.83544
G0 F6000 X116.288 Y93.661
G1 F300 X123.841 Y101.213 E80.19068
G0 F6000 X123.841 Y100.647
G1 F300 X116.854 Y93.661 E80.51931
G0 F6000 X117.419 Y93.661
G1 F300 X123.841 Y100.082 E80.82136
G0 F6000 X123.841 Y99.516
G1 F300 X117.985 Y93.661 E81.09678
G0 F6000 X118.551 Y93.661
G1 F300 X123.841 Y98.95 E81.34558
G0 F6000 X123.841 Y98.385
G1 F300 X119.116 Y93.661 E81.56781
G0 F6000 X119.682 Y93.661
G1 F300 X123.841 Y97.819 E81.76341
G0 F6000 X123.841 Y97.253
G1 F300 X120.248 Y93.661 E81.93239
G0 F6000 X120.813 Y93.661
G1 F300 X123.841 Y96.688 E82.0748
G0 F6000 X123.841 Y96.122
G1 F300 X121.379 Y93.661 E82.19058
G0 F6000 X121.945 Y93.661
G1 F300 X123.841 Y95.556 E82.27974
G0 F6000 X123.841 Y94.991
G1 F300 X122.51 Y93.661 E82.34232
G0 F6000 X123.076 Y93.661
G1 F300 X123.841 Y94.425 E82.37828
G0 F6000 X123.841 Y93.859
G1 F300 X123.642 Y93.661 E82.38761
G1 F2700 E77.38761
;MESH:NONMESH
G0 F300 X123.642 Y93.661 Z0.4
G0 F6000 X123.642 Y93.2
G0 X110.414 Y92.914
G0 X109.335 Y92.914
G0 X102.355 Y85.767
;TIME_ELAPSED:509.121917
;LAYER:1
M140 S70
M106 S85
;TYPE:SKIRT
G1 F2700 E82.38761
G1 F300 X102.981 Y85.117 E82.41763
G1 X103.662 Y84.524 E82.44766
G1 X104.394 Y83.994 E82.47772
G1 X105.169 Y83.531 E82.50775
G1 X105.982 Y83.138 E82.53778
G1 X106.827 Y82.818 E82.56783
G1 X107.696 Y82.575 E82.59785
G1 X108.584 Y82.409 E82.62789
G1 X109.723 Y82.313 E82.66591
G1 X110.33 Y82.3 E82.6861
G1 X124.293 Y82.3 E83.15052
G1 X125.137 Y82.311 E83.17859
G1 X126.039 Y82.364 E83.20864
G1 X126.932 Y82.496 E83.23867
G1 X127.81 Y82.707 E83.2687
G1 X128.666 Y82.995 E83.29874
G1 X129.493 Y83.357 E83.32876
G1 X130.285 Y83.792 E83.35882
G1 X131.036 Y84.294 E83.38886
